!!!!SEGMENT: pl-cz--iii-229_fertner-karol-iesu-flos-matris.krn
!!!id: 18xx:61
!!!COM: Fertner, Karol
!!!OTL: Iesu flos Matris
!!!PDT:
!!!SMS-siglum: PL-CZ
!!!SMS-shelfmark: III-229
!!!NIFC-rismID:
!!!URL-scan: http://repozytorium.nifc.pl/skany/pl-cz-nut--iii-229
!!!ONB-nifc:
!!!OMD: Andante
!!!ENC: Berenika Jozajtis
!!!END: 2020-02-18
**kern	**dynam	**kern	**text	**kern	**text	**dynam	**kern	**dynam	**kern	**dynam	**kern	**dynam	**kern	**dynam	**kern	**dynam	**kern	**dynam	**kern	**dynam	**kern	**dynam
*part11	*part11	*part10	*part10	*part9	*part9	*part9	*part8	*part8	*part7	*part7	*part6	*part6	*part5	*part5	*part4	*part4	*part3	*part3	*part2	*part2	*part1	*part1
*staff11	*	*staff10	*staff10	*staff9	*staff9	*	*staff8	*	*staff7	*	*staff6	*	*staff5	*	*staff4	*	*staff3	*	*staff2	*	*staff1	*
*I"Violone	*	*I"Tenore	*	*I"Soprano	*	*	*I"Viola	*	*I"Violino IIdo	*	*I"Violino primo	*	*I"Cornu secundo in B	*	*I"Cornuo primo in B	*	*I"Fagotto	*	*I"Clarinetto secundo	*	*I"Clarinetto primo	*
*I'Vne	*	*I'T	*	*I'S	*	*	*I'Vla	*	*I'Vn II	*	*I'Vn I	*	*I'Cor II	*	*I'Cor I	*	*I'Fag	*	*I'Cl II	*	*I'Cl I	*
*clefF4	*	*clefC4	*	*clefC1	*	*	*clefC3	*	*clefG2	*	*clefG2	*	*clefG2	*	*clefG2	*	*clefF4	*	*clefG2	*	*clefG2	*
*	*	*	*	*	*	*	*	*	*	*	*	*	*ITrd1c2	*	*ITrd1c2	*	*	*	*ITrd1c2	*	*ITrd1c2	*
*k[b-e-]	*	*k[b-e-]	*	*k[b-e-]	*	*	*k[b-e-]	*	*k[b-e-]	*	*k[b-e-]	*	*k[b-e-]	*	*k[b-e-]	*	*k[b-e-]	*	*k[b-e-]	*	*k[b-e-]	*
*B-:	*	*B-:	*	*B-:	*	*	*B-:	*	*B-:	*	*B-:	*	*	*	*	*	*B-:	*	*	*	*	*
*M2/2	*	*M2/2	*	*M2/2	*	*	*M2/2	*	*M2/2	*	*M2/2	*	*M2/2	*	*M2/2	*	*M2/2	*	*M2/2	*	*M2/2	*
*met(c|)	*	*met(c|)	*	*met(c|)	*	*	*met(c|)	*	*met(c|)	*	*met(c|)	*	*met(c|)	*	*met(c|)	*	*met(c|)	*	*met(c|)	*	*met(c|)	*
=1	=1	=1	=1	=1	=1	=1	=1	=1	=1	=1	=1	=1	=1	=1	=1	=1	=1	=1	=1	=1	=1	=1
*2\right	*	*2\right	*	*2\right	*	*	*	*	*	*	*	*	*	*	*	*	*	*	*	*	*	*
!LO:TX:a:t=Andante	!LO:DY:a	!LO:TX:a:t=Andante	!	!LO:TX:a:i:t=Andante	!	!	!LO:TX:a:i:t=Andante	!	!LO:TX:a:i:t=Andante	!	!LO:TX:a:i:t=Andante	!	!LO:TX:a:i:t=Andante	!	!LO:TX:a:i:t=Andante	!	!LO:TX:a:i:t=Andante	!	!LO:TX:a:i:t=Andante	!	!LO:TX:a:i:t=Andante	!
!LO:TX:t=P:f zapisywane jako for: :problem	!	!	!	!	!	!	!LO:TX:t=P:f zapisywane jako for: :problem	!LO:DY:a	!LO:TX:t=P:f zapisywane jako f: fo: for: :problem	!LO:DY:a	!LO:TX:t=P: f jako for:, fo: lub f: :problem	!	!LO:TX:t=P: f jako for:, fo: lub f: :problem	!LO:DY:a	!LO:TX:t=P: f jako for:, fo: lub f: :problem	!	!LO:TX:t=P: f jako for:, fo: lub f: :problem	!	!LO:TX:t=P: f jako for:, fo: lub f: :problem	!LO:DY:a	!LO:TX:t=P: f jako for:, fo: lub f: :problem	!
4.B-\	f	00r	.	00r	.	.	4.b-\	f	4.b-\	f	4.dd\ 4.bb-\	f	4.b-\	f	4.dd\	f	4.B-\	f	4.b-\	f	4.bb-\	f
8B-\	.	.	.	.	.	.	8b-\	.	8b-\	.	8dd\ 8bb-\	.	8b-\	.	8dd\	.	8B-\	.	8b-\	.	8bb-\	.
4B-\	.	.	.	.	.	.	4b-\	.	4b-\	.	4dd\ 4bb-\	.	4b-\	.	4dd\	.	8F\L	.	4b-\	.	4ff\	.
!	!	!LO:TX:a:t=6.	!	!LO:TX:a:t=12.	!	!	!	!	!	!	!	!	!	!	!	!	!	!	!	!	!	!
.	.	.	.	.	.	.	.	.	.	.	.	.	.	.	.	.	8B-\	.	.	.	.	.
4B-\	.	.	.	.	.	.	4b-\	.	4b-\	.	4dd\ 4bb-\	.	4b-\	.	4dd\	.	8D\	.	4b-\	.	4dd\	.
.	.	.	.	.	.	.	.	.	.	.	.	.	.	.	.	.	8F\J	.	.	.	.	.
=2	=2	=2	=2	=2	=2	=2	=2	=2	=2	=2	=2	=2	=2	=2	=2	=2	=2	=2	=2	=2	=2	=2
*	*	*	*	*	*	*	*2\right	*	*2\right	*	*2\right	*	*2\right	*	*2\right	*	*2\right	*	*2\right	*	*2\right	*
2B-\	.	.	.	.	.	.	2b-\	.	2b-\	.	2dd\ 2bb-\	???	2b-\	.	2dd\	???	2BB-/	.	2b-\	.	2dd\	.
8r	.	.	.	.	.	.	8r	.	8r	.	8r	.	8r	.	8r	.	8r	.	8r	.	8r	.
8B-\'L	.	.	.	.	.	.	8b-\'L	.	8b-\L	.	8bb-\'L	.	8b-\L	.	8b-\L	.	8B-\'L	.	8b-L\	.	8bb-\'L	.
8F\'	.	.	.	.	.	.	8f\'	.	8f/	.	8ff\'	.	8f\	.	8ff\	.	8F\'	.	8f/	.	8ff\'	.
8D\'J	.	.	.	.	.	.	8d\'J	.	8d/J	.	8dd\'J	.	8d/J	.	8dd\J	.	8D\'J	.	8d/J	.	8dd\'J	.
=3	=3	=3	=3	=3	=3	=3	=3	=3	=3	=3	=3	=3	=3	=3	=3	=3	=3	=3	=3	=3	=3	=3
4.F\	.	.	.	.	.	.	4.f\	.	4.f/	.	4.ff\	.	4.f/	.	4.cc\	.	4.F\	.	4.f/	.	4.ff\	.
8F\	.	.	.	.	.	.	8f\	.	8f/	.	8ff\	.	8f/	.	8cc\	.	8F\	.	8f/	.	8ff\	.
4F\	.	.	.	.	.	.	4f\	.	4f/	.	4ff\	.	4f/	.	4cc\	.	8CL\	.	4f/	.	4cc\	.
.	.	.	.	.	.	.	.	.	.	.	.	.	.	.	.	.	8F\	.	.	.	.	.
4F\	.	.	.	.	.	.	4f\	.	4f/	.	4ff\	.	4f/	.	4cc\	.	8AA/	.	4f/	.	4a/	.
.	.	.	.	.	.	.	.	.	.	.	.	.	.	.	.	.	8C/J	.	.	.	.	.
=4	=4	=4	=4	=4	=4	=4	=4	=4	=4	=4	=4	=4	=4	=4	=4	=4	=4	=4	=4	=4	=4	=4
2F\	.	.	.	.	.	.	2f\	.	2f/	.	2ff\	.	2f/	.	2cc\	.	2FF/	.	2f/	.	2f/	.
8r	.	.	.	.	.	.	8r	.	8r	.	8r	.	2r	.	4r	.	8r	.	8r	.	8r	.
8F\'L	.	.	.	.	.	.	8f\'L	.	8f/L	.	8ff\'L	.	.	.	.	.	8F\L	.	8f/L	.	8ff\'L	.
8G\'	.	.	.	.	.	.	8g\'	.	8g/	.	8gg\'	.	.	.	4r	.	8E-\	.	8g/	.	8gg\'	.
8A\'J	.	.	.	.	.	.	8a\'J	.	8a/J	.	8aa\'J	.	.	.	.	.	8C/J	.	8a/J	.	8aa\'J	.
=5	=5	=5	=5	=5	=5	=5	=5	=5	=5	=5	=5	=5	=5	=5	=5	=5	=5	=5	=5	=5	=5	=5
!LO:PB:g=original	!	!	!	!	!	!	!LO:PB:g=original	!	!LO:PB:g=original	!	!LO:PB:g=original	!	!	!	!	!	!LO:PB:g=original	!	!	!	!LO:PB:g=original	!
4.B-\	.	0r	.	00r	.	.	4.b-\	.	4.b-\	.	4.dd\ 4.bb-\	.	4.b-\	.	4.dd\	.	4.BB-/	.	4.b-\	.	4.bb-\	.
8B-\	.	.	.	.	.	.	8b-\	.	8b-\	.	8dd\ 8bb-\	.	8b-\	.	8dd\	.	8B-\	.	8b-\	.	8bb-\	.
4B-\	.	.	.	.	.	.	4b-\	.	4b-\	.	4dd\ 4bb-\	.	4b-\	.	4dd\	.	8F\L	.	4b-\	.	8ff\L	.
.	.	.	.	.	.	.	.	.	.	.	.	.	.	.	.	.	8B-\	.	.	.	8bb-\	.
4B-\	.	.	.	.	.	.	4b-\	.	4b-\	.	4dd\ 4bb-\	.	4b-\	.	4dd\	.	8D\	.	4b-\	.	8dd\	.
.	.	.	.	.	.	.	.	.	.	.	.	.	.	.	.	.	8F\J	.	.	.	8ff\J	.
=6	=6	=6	=6	=6	=6	=6	=6	=6	=6	=6	=6	=6	=6	=6	=6	=6	=6	=6	=6	=6	=6	=6
!	!	!	!	!	!	!	!	!	!	!	!	!	!LO:PB:g=original	!	!LO:PB:g=original	!	!	!	!LO:PB:g=original	!	!	!
2B-\	.	.	.	.	.	.	2b-\	.	2b-\	.	2dd\ 2bb-\	.	2b-\	.	2dd\	.	2BB-/	.	2b-\	.	2b-\	.
8r	.	.	.	.	.	.	8r	.	8r	.	8r	.	2r	.	4r	.	8r	.	8r	.	8r	.
8F\L	.	.	.	.	.	.	8f\'L	.	8f/L	.	8ff\'L	.	.	.	.	.	8D\L	.	8f/L	.	8ff\'L	.
8G\	.	.	.	.	.	.	8g\'	.	8g/	.	8gg\'	.	.	.	4r	.	8E-\	.	8g/	.	8gg\'	.
!	!	!	!	!	!	!	!	!	!LO:TX:t=P: p zapisywane jako pi :problem	!	!	!	!	!	!	!	!	!	!	!	!	!
8A\J	.	.	.	.	.	.	8a\'J	.	8a/J	p	8aa\'J	.	.	.	.	.	8C/J	.	8a/J	.	8aa\'J	.
=7	=7	=7	=7	=7	=7	=7	=7	=7	=7	=7	=7	=7	=7	=7	=7	=7	=7	=7	=7	=7	=7	=7
!	!	!LO:TX:a:i:t=Solo	!	!	!	!	!	!LO:DY:a	!	!	!LO:TX:t=P:p zapisane jako pi w całej partii:problem	!	!	!	!	!	!	!	!	!	!	!
*	*	*	*	*	*	*	*	*	*tremolo	*	*tremolo	*	*	*	*	*	*	*	*	*	*	*
!LOTX:t=P: p zapisywane jako pi , pia:problem	!	!	!	!	!	!	!LO:TX:t=P: p zapisywane jako pi , pia:problem	!	!	!	!	!	!	!	!	!	!	!	!	!	!	!
4BB-/	p	2B-\	Je-	.	.	.	8r	p	(<8B-/L	.	(<8d/L	p	8r	.	8r	.	8r	.	8r	.	8r	.
!	!	!	!	!	!	!	!	!	!	!	!	!	!LO:TX:t=P:p zapisywane jako pi, pia: :problem	!	!LO:TX:t=P:p zapisywane jako pi, pia: :problem	!	!LO:TX:t=P:p zapisywane jako pi, pia: :problem	!	!LO:TX:t=P:p zapisywane jako pi, pia: :problem	!LO:DY:a	!LO:TX:t=P:p zapisywane jako pi, pia: :problem	!LO:DY:a
.	.	.	.	.	.	.	8b-\L	.	8d/)	.	8f/)	.	8d/L	.	8b-\L	p	8BB-/L	p	8b-\L	p	8dd\L	p
4r	.	.	.	.	.	.	8b-\	.	(<8B-/	.	(<8d/	.	8d/	p	8b-\	.	8BB-/	.	8b-\	.	8dd\	.
.	.	.	.	.	.	.	8b-\J	.	8d/J)	.	8f/J)	.	8d/J	.	8b-\J	.	8BB-/J	.	8b-\J	.	8dd\J	.
4BB-/	.	8B-\	-su	.	.	.	8r	.	(<8B-/L	.	(<8d/L	.	8r	.	8r	.	8r	.	8r	.	8r	.
.	.	(>16A\LL	flos	.	.	.	8b-\L	.	8d/)	.	8f/)	.	8d/L	.	8b-\L	.	8BB-/L	.	8b-\L	.	8dd\L	.
.	.	16B-\JJ	.	.	.	.	.	.	.	.	.	.	.	.	.	.	.	.	.	.	.	.
4r	.	16c\LL	.	.	.	.	8b-\	.	(<8B-/	.	(<8d/	.	8d/	.	8b-\	.	8BB-/	.	8b-\	.	8dd\	.
.	.	16B-\	.	.	.	.	.	.	.	.	.	.	.	.	.	.	.	.	.	.	.	.
.	.	16A\	.	.	.	.	8b-\	.	8d/J)	.	8f/J)	.	8d/J	.	8b-\J	.	8BB-/J	.	8b-\J	.	8dd\J	.
.	.	16G/JJ)	.	.	.	.	.	.	.	.	.	.	.	.	.	.	.	.	.	.	.	.
=8	=8	=8	=8	=8	=8	=8	=8	=8	=8	=8	=8	=8	=8	=8	=8	=8	=8	=8	=8	=8	=8	=8
4BB-/	.	(<8G/L	Ma-	.	.	.	8r	.	(<8B-/L	???	(<8d/L	???	8r	.	8r	.	8r	.	8r	.	8r	.
.	.	8F/J)	.	.	.	.	8b-\L	.	8d/)	.	8f/)	.	8d/L	.	8b-\L	.	8BB-/L	.	8b-\L	.	8dd\L	.
4r	.	4F/	-tris	.	.	.	8b-\	.	(<8B-/	.	(<8d/	.	8d/	.	8b-\	.	8BB-/	.	8b-\	.	8dd\	.
.	.	.	.	.	.	.	8b-\J	.	8d/J)	.	8f/J)	.	8d/J	.	8b-\J	.	8BB-/J	.	8b-\J	.	8dd\J	.
*	*	*	*	*	*	*	*	*	*rep	*	*	*	*	*	*	*	*	*	*	*	*	*
4BB-/	.	8F/L	Vir-	.	.	.	8r	.	(<8B-/L	.	(<8d/L	.	8r	.	8r	.	8r	.	8r	.	8r	.
*	*	*	*	*	*	*	*	*	*	*	*	*	*	*	*	*	*	*	*rep	*	*	*
.	.	16E-/L	.	.	.	.	8b-\L	.	8d/)	.	8f/)	.	8d/L	.	8b-\L	.	8BB-/L	.	8b-\L	.	8dd\L	.
.	.	16F/JJ	.	.	.	.	.	.	.	.	.	.	.	.	.	.	.	.	.	.	.	.
4r	.	(<16A\LL	.	.	.	.	8b-\	.	(<8B-/	.	(<8d/	.	8d/	.	8b-\	.	8BB-/	.	8b-\	.	8dd\	.
.	.	16G/	.	.	.	.	.	.	.	.	.	.	.	.	.	.	.	.	.	.	.	.
.	.	16F/	-gi-	.	.	.	8b-\J	.	8d/J)	.	8f/J)	.	8d/J	.	8b-\J	.	8BB-/J	.	8b-\J	.	8dd\J	.
.	.	16E-/JJ)	.	.	.	.	.	.	.	.	.	.	.	.	.	.	.	.	.	.	.	.
*	*	*	*	*	*	*	*	*	*Xrep	*	*	*	*	*	*	*	*	*	*Xrep	*	*	*
=9	=9	=9	=9	=9	=9	=9	=9	=9	=9	=9	=9	=9	=9	=9	=9	=9	=9	=9	=9	=9	=9	=9
!	!	!LO:PB:g=original	!	!	!	!	!	!	!	!	!	!	!	!	!	!	!	!	!	!	!	!
4BB-/	.	(<8E-/L	-nis	00r	.	.	8r	.	(<8B-/L	.	(<8d/L	.	8r	.	8r	.	8r	.	8r	.	8r	.
.	.	8D/J)	.	.	.	.	8b-\L	.	8d/)	.	8f/)	.	8d/L	.	8b-\L	.	8BB-/L	.	8b-\L	.	8dd\L	.
4r	.	4D/	.	.	.	.	8b-\	.	(<8B-/	.	(<8d/	.	8d/	.	8b-\	.	8BB-/	.	8b-\	.	8dd\	.
.	.	.	.	.	.	.	8b-\J	.	8d/J)	.	8f/J)	.	8d/J	.	8b-\J	.	8BB-/J	.	8b-\J	.	8dd\J	.
*	*	*	*	*	*	*	*	*	*rep	*	*	*	*	*	*	*	*	*	*	*	*	*
4BB-/	.	8r	.	.	.	.	8r	.	(<8B-/L	.	(<8d/L	.	8r	.	8r	.	8r	.	8r	.	8r	.
*	*	*	*	*	*	*	*	*	*	*	*	*	*	*	*	*	*	*	*rep	*	*	*
.	.	(>8FL\	A-	.	.	.	8b-\L	.	8d/)	.	8f/)	.	8d/L	.	8b-\L	.	8BB-/L	.	8b-\L	.	8dd\L	.
4r	.	8B-\J	.	.	.	.	8b-\	.	(<8B-/	.	(<8d/	.	8d/	.	8b-\	.	8BB-/	.	8b-\	.	8dd\	.
.	.	8d\)	-mor	.	.	.	8b-\J	.	8d/J)	.	8f/J)	.	8d/J	.	8b-\J	.	8BB-/J	.	8b-\J	.	8dd\J	.
*	*	*	*	*	*	*	*	*	*Xrep	*	*	*	*	*	*	*	*	*	*Xrep	*	*	*
=10	=10	=10	=10	=10	=10	=10	=10	=10	=10	=10	=10	=10	=10	=10	=10	=10	=10	=10	=10	=10	=10	=10
!	!	!	!	!	!	!	!	!	!	!	!	!	!	!	!	!	!	!	!	!	!LO:PB:g=original	!
4F\	.	(>4.c\	no-	.	.	.	8r	.	(<8c/L	.	(<8e-/L	.	8r	.	8r	.	8r	.	8r	.	8r	.
.	.	.	.	.	.	.	8f\L	.	8e-/)	.	8f/)	.	8f/L	.	8cc\L	.	8F\L	.	8a/L	.	8cc\L	.
4r	.	.	.	.	.	.	8f\	.	(<8c/	.	(<8e-/	.	8f/	.	8cc\	.	8F\	.	8a/	.	8cc\	.
.	.	8A\)	.	.	.	.	8f\J	.	8e-/J)	.	8f/J)	.	8f/J	.	8cc\J	.	8F\J	.	8a/J	.	8cc\J	.
*	*	*	*	*	*	*	*	*	*rep	*	*	*	*	*	*	*	*	*	*	*	*	*
!	!	!	!	!	!	!	!	!	!	!	!	!	!	!	!	!	!LO:PB:g=original	!	!	!	!	!
4F\	.	8F/	-strae	.	.	.	8r	.	(<8c/L	.	(<8e-/L	.	8r	.	8r	.	8r	.	8r	.	8r	.
.	.	8F/	dul-	.	.	.	8f\L	.	8e-/)	.	8f/)	.	8f/L	.	8cc\L	.	8F\L	.	8a/L	.	8cc\L	.
4r	.	8G/	-ce-	.	.	.	8f\	.	(<8c/	.	(<8e-/	.	8f/	.	8cc\	.	8F\	.	8a/	.	8cc\	.
.	.	8A\	-di-	.	.	.	8f\J	.	8e-/J)	.	8f/J)	.	8f/J	.	8cc\J	.	8F\J	.	8a/J	.	8cc\J	.
*	*	*	*	*	*	*	*	*	*Xrep	*	*	*	*	*	*	*	*	*	*	*	*	*
=11	=11	=11	=11	=11	=11	=11	=11	=11	=11	=11	=11	=11	=11	=11	=11	=11	=11	=11	=11	=11	=11	=11
!LO:PB:g=original	!	!	!	!	!	!	!LO:PB:g=original	!	!	!	!	!	!LO:PB:g=original	!	!	!	!	!	!	!	!	!
4BB-/	.	4B-\	-nis	.	.	.	8r	.	(<8B-/L	.	(<8d/L	.	8r	.	8r	.	8r	.	8r	.	8r	.
.	.	.	.	.	.	.	8b-\L	.	8d/)	.	8f/)	.	8d/L	.	8b-\L	.	8BB-/L	.	8b-\L	.	8dd\L	.
4r	.	4r	.	.	.	.	8b-\	.	(<8B-/	.	(<8d/	.	8d/	.	8b-\	.	8BB-/	.	8b-\	.	8dd\	.
.	.	.	.	.	.	.	8b-\J	.	8d/J)	.	8f/J)	.	8d/J	.	8b-\J	.	8BB-/J	.	8b-\J	.	8dd\J	.
*	*	*	*	*	*	*	*	*	*rep	*	*	*	*	*	*	*	*	*	*	*	*	*
4BB-/	.	8r	.	.	.	.	8r	.	(<8B-/L	.	(<8d/L	.	8r	.	8r	.	8r	.	8r	.	8r	.
.	.	(>8FL\	A-	.	.	.	8b-\L	.	8d/)	.	8f/)	.	8d/L	.	8b-\L	.	8BB-/L	.	8b-\L	.	8dd\L	.
4r	.	8B-\J	.	.	.	.	8b-\	.	(<8B-/	.	(<8d/	.	8d/	.	8b-\	.	8BB-/	.	8b-\	.	8dd\	.
.	.	8d\)	-mor	.	.	.	8b-\J	.	8d/J)	.	8f/J)	.	8d/J	.	8b-\J	.	8BB-/J	.	8b-\J	.	8dd\J	.
*	*	*	*	*	*	*	*	*	*Xrep	*	*	*	*	*	*	*	*	*	*	*	*	*
=12	=12	=12	=12	=12	=12	=12	=12	=12	=12	=12	=12	=12	=12	=12	=12	=12	=12	=12	=12	=12	=12	=12
!	!	!	!	!	!	!	!	!	!LO:PB:g=original	!	!LO:PB:g=original	!	!	!	!LO:PB:g=original	!	!	!	!LO:PB:g=original	!	!	!
4F\	.	(>4.c\	no-	.	.	.	8r	.	(<8c/L	.	(<8e-/L	.	8r	.	8r	.	8r	.	8r	.	8r	.
.	.	.	.	.	.	.	8f\L	.	8e-/)	.	8f/)	.	8f/L	.	8cc\L	.	8F\L	.	8a/L	.	8cc\L	.
4r	.	.	.	.	.	.	8f\	.	(<8c/	.	(<8e-/	.	8f/	.	8cc\	.	8F\	.	8a/	.	8cc\	.
.	.	8A\)	.	.	.	.	8f\J	.	8e-/J)	.	8f/J)	.	8f/J	.	8cc\J	.	8F\J	.	8a/J	.	8cc\J	.
*	*	*	*	*	*	*	*	*	*rep	*	*	*	*	*	*	*	*	*	*	*	*	*
4F\	.	8F/	-strae	.	.	.	8r	.	(<8c/L	.	(<8e-/L	.	8r	.	8r	.	8r	.	8r	.	8r	.
.	.	8F/	dul-	.	.	.	8f\L	.	8e-/)	.	8f/)	.	8f/L	.	8cc\L	.	8F\L	.	8a/L	.	8cc\L	.
4r	.	8G/	-ce-	.	.	.	8f\	.	(<8c/	.	(<8e-/	.	8f/	.	8cc\	.	8F\	.	8a/	.	8cc\	.
.	.	8A\	-di-	.	.	.	8f\J	.	8e-/J)	.	8f/J)	.	8f/J	.	8cc\J	.	8F\J	.	8a/J	.	8cc\J	.
*	*	*	*	*	*	*	*	*	*Xrep	*	*	*	*	*	*	*	*	*	*	*	*	*
=13	=13	=13	=13	=13	=13	=13	=13	=13	=13	=13	=13	=13	=13	=13	=13	=13	=13	=13	=13	=13	=13	=13
!	!LO:DY:a	!	!	!	!	!	!	!LO:DY:a	!	!LO:DY:a	!	!LO:DY:a	!	!LO:DY:a	!	!	!	!LO:DY:a	!	!	!	!LO:DY:a
8BB-L/	f	4B-\	-nis	2r	.	.	8b-\L	f	8B-L/	f	8dL/	f	8d/L	f	8b-\L	f	8BB-L/	f	8b-\L	f	8b-\L	f
!LO:TX:t=P:mixed beam:problem	!	!	!	!	!	!	!	!	!LO:TX:t=P:mixed beam:problem	!	!LO:TX:t=P:mixed beam:problem	!	!	!	!	!	!LO:TX:t=P:mixed beam:problem	!	!	!	!	!
8B-\	.	.	.	.	.	.	16b-\L	.	16b-L\	.	16ddL\	.	16d/L	.	16b-\L	.	8B-\	.	16b-\L	.	16dd\L	.
.	.	.	.	.	.	.	16b-\JJ	.	16b-JJ\	.	16ddJJ\	.	16d/JJ	.	16b-\JJ	.	.	.	16b-\JJ	.	16dd\JJ	.
*	*	*	*	*	*	*	*	*	*Xtremolo	*	*Xtremolo	*	*	*	*	*	*	*	*	*	*	*
8F\	.	4r	.	.	.	.	8b-\L	.	8b-\L	.	8dd\L	.	8d/L	.	8b-\L	.	8F\	.	8b-\L	.	8dd\L	.
8DJ\	.	.	.	.	.	.	8b-\J	.	8b-\J	.	8dd\J	.	8d/J	.	8b-\J	.	8DJ\	.	8b-\J	.	8dd\J	.
!	!	!LO:PB:g=original	!	!	!	!	!	!	!	!	!	!	!	!	!	!	!	!	!	!	!	!
4BB-/	.	8r	.	8r	.	.	4b-\	.	4b-\	.	4dd\	.	4d/	.	4b-\	.	4BB-/	.	4b-\	.	4dd\	.
!	!	!LO:TX:a:i:t=Tut:	!	!LO:SIC:v=forte zapisane jako for:	!	!LO:DY:a	!	!	!	!	!	!	!	!	!	!	!	!	!	!	!	!
.	.	8B-\	dul-	8dd\	Dul-	f	.	.	.	.	.	.	.	.	.	.	.	.	.	.	.	.
4r	.	8B-\	-ce-	8dd\	-ce-	.	4r	.	4r	.	4r	.	4r	.	4r	.	4r	.	4r	.	4r	.
.	.	8B-\	-di-	8dd\	-di-	.	.	.	.	.	.	.	.	.	.	.	.	.	.	.	.	.
=14	=14	=14	=14	=14	=14	=14	=14	=14	=14	=14	=14	=14	=14	=14	=14	=14	=14	=14	=14	=14	=14	=14
8r	.	4c\	-nis	4ee-\	-nis	.	8r	.	8r	.	8r	.	8r	.	8r	.	8r	.	8r	.	8r	.
!	!	!	!	!	!	!	!	!	!	!	!	!	!	!	!	!	!	!	!	!	!LO:SIC:v=nieczytelny napis. BYć może "dolce"	!
8F\L	.	.	.	.	.	.	8f\L	.	8aL\	.	8cc\L	.	8f/L	.	8cc\L	.	8F\L	.	8a/L	.	8cc\L	.
8F\	.	4r	.	4r	.	.	8f\	.	8a/	.	8cc\	.	8f/	.	8cc\	.	8F\	.	8a/	.	8cc\	.
8F\J	.	.	.	.	.	.	8f\J	.	8a/J	.	8cc\J	.	8f/J	.	8cc\J	.	8F\J	.	8a/J	.	8cc\J	.
!	!	!	!	!LO:PB:g=original	!	!	!	!	!	!	!	!	!	!	!	!	!	!	!	!	!	!
8F\	.	8r	.	8r	.	.	4b-\	.	4b-\	.	4dd\	.	4f/	.	4dd\	.	8F\	.	8b-\	.	8dd\	.
*	*	*	*	*	*ij	*	*	*	*	*	*	*	*	*	*	*	*	*	*	*	*	*
8r	.	8c\	dul-	8ee-\	Dul-	.	.	.	.	.	.	.	.	.	.	.	8r	.	8r	.	8r	.
4r	.	8c\	-ce-	8ee-\	-ce-	.	4r	.	4r	.	4r	.	4r	.	4r	.	4r	.	4r	.	4r	.
.	.	8c\	-di-	8ee-\	-di-	.	.	.	.	.	.	.	.	.	.	.	.	.	.	.	.	.
=15	=15	=15	=15	=15	=15	=15	=15	=15	=15	=15	=15	=15	=15	=15	=15	=15	=15	=15	=15	=15	=15	=15
8r	.	4B-\	-nis	4dd\	-nis	.	8r	.	8r	.	8r	.	8r	.	8r	.	8r	.	8r	.	8r	.
*	*	*	*	*	*Xij	*	*	*	*	*	*	*	*	*	*	*	*	*	*	*	*	*
8BB-L/	.	.	.	.	.	.	8b-\L	.	8b-\L	.	8dd\L	.	8d/L	.	8b-\L	.	8B-\L	.	8b-\L	.	8dd\L	.
8D\	.	4r	.	4r	.	.	8b-\	.	8b-\	.	8dd\	.	8d/	.	8b-\	.	8F\	.	8b-\	.	8dd\	.
8F\J	.	.	.	.	.	.	8b-\J	.	8b-\J	.	8dd\J	.	8d/J	.	8b-\J	.	8D\J	.	8b-\J	.	8dd\J	.
4B-\	.	8r	.	8r	.	.	4f\	.	4a\	.	4cc\	.	4f/	.	4cc\	.	4BB-/	.	8a/	.	8cc\	.
.	.	8c\	A-	8ee-\	A-	.	.	.	.	.	.	.	.	.	.	.	.	.	8r	.	8r	.
4r	.	8c\	-mor	8ee-\	-mor	.	4r	.	4r	.	4r	.	4r	.	4r	.	4r	.	4r	.	4r	.
.	.	8c\	no-	8ee-\	no-	.	.	.	.	.	.	.	.	.	.	.	.	.	.	.	.	.
=16	=16	=16	=16	=16	=16	=16	=16	=16	=16	=16	=16	=16	=16	=16	=16	=16	=16	=16	=16	=16	=16	=16
!LO:PB:g=original	!	!	!	!	!	!	!	!	!	!	!	!	!LO:PB:g=original	!	!	!	!LO:PB:g=original	!	!	!	!	!
4B-\	.	4B-\	-strae	4dd\	-strae	.	4B-/	.	4b-\	.	4dd\	.	4b-\	.	4dd\	.	4B-\	.	4b-\	.	4dd\	.
4E-\	.	4G\	dul-	4cc\	dul-	.	4d/	.	16dd\LL	.	16ff\LL	.	4f/	.	4cc\	.	4E-\	.	16dd\LL	.	16ff\LL	.
.	.	.	.	.	.	.	.	.	16cc\	.	16ee-\	.	.	.	.	.	.	.	16cc\	.	16ee-\	.
.	.	.	.	.	.	.	.	.	16b-\	.	16dd\	.	.	.	.	.	.	.	16b-\	.	16dd\	.
.	.	.	.	.	.	.	.	.	16f/JJ	.	16cc\JJ	.	.	.	.	.	.	.	16f/JJ	.	16cc\JJ	.
4F\	.	4F/	-ce-	4b-\	-ce-	.	4f\	.	4d/	.	4b-\	.	4d/	.	4b-\	.	4F\	.	4d/	.	4b-\	.
4FF/	.	4F/	-di-	4a\	-di-	.	4F/	.	4c/	.	4a\	.	4f/	.	4cc\	.	4FF/	.	4c/	.	4a/	.
=17	=17	=17	=17	=17	=17	=17	=17	=17	=17	=17	=17	=17	=17	=17	=17	=17	=17	=17	=17	=17	=17	=17
!	!	!	!	!	!	!	!LO:PB:g=original	!	!	!	!	!LO:DY:a	!	!	!	!	!	!	!	!	!	!LO:DY:a
!	!	!	!	!	!	!	!	!LO:DY:a	!	!	!	!	!	!	!	!	!	!	!	!	!	!
8BB-L/	.	4F/	-nis	4b-\	-nis,	.	8B-L/	f	8dL/	.	8b-\L	f	4d/	.	4b-\	.	8BB-/L	.	4d/	.	8b-\L	f
!LO:TX:t=P:mixed beam:problem	!	!	!	!	!	!	!LO:TX:t=P:mixed beam:problem	!	!LO:TX:t=P:mixed beam:problem	!	!	!	!	!	!	!	!	!	!	!	!	!
8B-\	.	.	.	.	.	.	16b-L\	.	16b-L\	.	16dd\L	.	.	.	.	.	8B-\	.	.	.	16dd\L	.
.	.	.	.	.	.	.	16b-JJ\	.	16b-JJ\	.	16dd\JJ	.	.	.	.	.	.	.	.	.	16dd\JJ	.
8F\	.	4r	.	4r	.	.	8b-\L	.	8b-\L	.	8dd\L	.	8d/L	.	8b-\L	.	8F\	.	4b-\	.	8dd\L	.
8DJ\	.	.	.	.	.	.	8b-\J	.	8b-\J	.	8dd\J	.	8d/J	.	8b-\J	.	8D\J	.	.	.	8dd\J	.
4BB-/	.	8r	.	8r	.	.	4b-\	.	4b-\	.	4dd\	.	4d/	.	4b-\	.	4BB-/	.	4b-\	.	4dd\	.
.	.	8B-\	dul-	8dd\	dul-	.	.	.	.	.	.	.	.	.	.	.	.	.	.	.	.	.
4r	.	8B-\	-ce-	8dd\	-ce-	.	4r	.	4r	.	4r	.	4r	.	4r	.	4r	.	4r	.	4r	.
.	.	8B-\	-di-	8dd\	-di-	.	.	.	.	.	.	.	.	.	.	.	.	.	.	.	.	.
=18	=18	=18	=18	=18	=18	=18	=18	=18	=18	=18	=18	=18	=18	=18	=18	=18	=18	=18	=18	=18	=18	=18
!	!	!LO:PB:g=original	!	!	!	!	!	!LO:PB:g=original	!	!	!	!	!	!	!LO:PB:g=original	!	!	!	!LO:PB:g=original	!	!	!
8r	.	4c\	-nis	4ee-\	-nis	.	8r	.	8r	.	8r	.	8r	.	8r	.	8r	.	8r	.	8r	.
!	!	!	!	!	!	!	!	!	!	!	!	!	!	!	!	!	!	!LO:DY:a	!	!	!	!
8F\L	.	.	.	.	.	.	8f\L	.	8aL\	.	8cc\L	.	8f/L	.	8cc\L	.	8F\L	???	8a/L	.	8cc\L	.
8F\	.	4r	.	4r	.	.	8f\	.	8a/	.	8cc\	.	8f/	.	8cc\	.	8F\	.	8a/	.	8cc\	.
8F\J	.	.	.	.	.	.	8f\J	.	8a/J	.	8cc\J	.	8f/J	.	8cc\J	.	8F\J	.	8a/J	.	8cc\J	.
*	*	*	*ij	*	*ij	*	*	*	*	*	*	*	*	*	*	*	*	*	*	*	*	*
4F\	.	8r	.	8r	.	.	4b-\	.	4b-\	.	4dd\	.	4f/	.	4dd\	.	4F\	.	4b-\	.	4dd\	.
.	.	8c\	dul-	8ee-\	Dul-	.	.	.	.	.	.	.	.	.	.	.	.	.	.	.	.	.
4r	.	8c\	-ce-	8ee-\	-ce-	.	4r	.	4r	.	4r	.	4r	.	4r	.	4r	.	4r	.	4r	.
.	.	8c\	-di-	8ee-\	-di-	.	.	.	.	.	.	.	.	.	.	.	.	.	.	.	.	.
=19	=19	=19	=19	=19	=19	=19	=19	=19	=19	=19	=19	=19	=19	=19	=19	=19	=19	=19	=19	=19	=19	=19
8r	.	4B-\	-nis	4dd\	-nis	.	8r	.	8r	.	8r	.	8r	.	8r	.	8r	.	8r	.	8r	.
*	*	*	*Xij	*	*Xij	*	*	*	*	*	*	*	*	*	*	*	*	*	*	*	*	*
8B-\L	.	.	.	.	.	.	8b-\L	.	8b-\L	.	8dd\L	.	8d/L	.	8b-\L	.	8B-\L	.	8b-\L	.	8dd\L	.
8F\	.	4r	.	4r	.	.	8b-\	.	8b-\	.	8dd\	.	8d/	.	8b-\	.	8F\	.	8b-\	.	8dd\	.
8D\J	.	.	.	.	.	.	8b-\J	.	8b-\J	.	8dd\J	.	8d/J	.	8b-\J	.	8D\J	.	8b-\J	.	8dd\J	.
4BB-/	.	8r	.	8r	.	.	4f\	.	4a\	.	4cc\	.	4f/	.	4cc\	.	4BB-/	.	4a/	.	4cc\	.
.	.	8c\	A-	8ee-\	A-	.	.	.	.	.	.	.	.	.	.	.	.	.	.	.	.	.
4r	.	8c\	-mor	8ee-\	-mor	.	4r	.	4r	.	4r	.	4r	.	4r	.	4r	.	4r	.	4r	.
.	.	8c\	no-	8ee-\	no-	.	.	.	.	.	.	.	.	.	.	.	.	.	.	.	.	.
=20	=20	=20	=20	=20	=20	=20	=20	=20	=20	=20	=20	=20	=20	=20	=20	=20	=20	=20	=20	=20	=20	=20
!	!	!	!	!LO:PB:g=original	!	!	!	!	!	!	!	!	!	!	!	!	!	!	!	!	!LO:PB:g=original	!
4BB-/	.	4B-\	-strae	4dd\	-strae	.	4B-/	.	4b-\	.	4dd\	.	4b-\	.	4dd\	.	4B-\	.	4b-\	.	4dd\	.
4E-\	.	4G\	dul-	4cc\	dul-	.	4d/	.	16dd\LL	.	16ff\LL	.	4f/	.	4cc\	.	4E-\	.	16dd\LL	.	16ff\LL	.
.	.	.	.	.	.	.	.	.	16cc\	.	16ee-\	.	.	.	.	.	.	.	16cc\	.	16ee-\	.
.	.	.	.	.	.	.	.	.	16b-\	.	16dd\	.	.	.	.	.	.	.	16b-\	.	16dd\	.
.	.	.	.	.	.	.	.	.	16f/JJ	.	16cc\JJ	.	.	.	.	.	.	.	16f/JJ	.	16cc\JJ	.
4F\	.	4F/	-ce-	4b-\	-ce-	.	4f\	.	4d/	.	4b-\	.	4d/	.	4b-\	.	4F\	.	4d/	.	4b-\	.
4FF/	.	4F/	-di-	4a\	-di-	.	4F/	.	4c/	.	4a\	.	4f/	.	4cc\	.	4FF/	.	4c/	.	4a/	.
=21	=21	=21	=21	=21	=21	=21	=21	=21	=21	=21	=21	=21	=21	=21	=21	=21	=21	=21	=21	=21	=21	=21
8BB-L/	.	4F/	-nis	4b-\	-nis	.	4B-/	.	4d/	.	4b-\	.	4d/	.	4b-\	.	8BB-L/	.	4d/	.	4b-\	.
!LO:TX:t=P:mixed beam:problem	!	!	!	!	!	!	!	!	!	!	!	!	!	!	!	!	!LO:TX:t=P:mixed beam:problem	!	!	!	!	!
8B-\	.	.	.	.	.	.	.	.	.	.	.	.	.	.	.	.	8B-\	.	.	.	.	.
8F\	.	4r	.	4r	.	.	4b-\	.	4d/ 4b-/	.	4dd\ 4bb-\	.	4d/	.	4b-\	.	8F\	.	4b-\	.	4dd\	.
8DJ\	.	.	.	.	.	.	.	.	.	.	.	.	.	.	.	.	8DJ\	.	.	.	.	.
4BB-/	.	2r	.	2r	.	.	4b-\	.	4d/ 4b-/	.	4dd\ 4bb-\	.	4d/	.	4b-\	.	4BB-/	.	4b-\	.	4dd\	.
!	!	!	!	!	!	!	!	!	!	!	!	!LO:DY:a	!	!	!	!	!	!	!	!	!	!
4r	.	.	.	.	.	.	4r	.	4r	.	4f/	p	4r	.	4r	.	4r	.	4r	.	4r	.
=22	=22	=22	=22	=22	=22	=22	=22	=22	=22	=22	=22	=22	=22	=22	=22	=22	=22	=22	=22	=22	=22	=22
!LO:PB:g=original	!LO:DY:a	!	!	!	!	!	!	!LO:DY:a	!	!	!	!LO:DY:a	!	!	!	!	!LO:PB:g=original	!LO:DY:a	!	!LO:DY:a	!	!
*	*	*	*	*	*	*	*tremolo	*	*	*	*	*	*	*	*	*	*	*	*	*	*tremolo	*
4BB-/	p	00r	.	00r	.	.	(>8d\L	p	8r	p	4.b-\	f	8r	.	8r	.	4BB-/	p	4B-/	p	8d/L	.
!	!	!	!	!	!	!	!	!	!	!	!	!	!	!LO:DY:a	!	!LO:DY:a	!	!	!	!	!	!LO:DY:a
.	.	.	.	.	.	.	8f\)	.	8B-/L 8d/	???	.	.	8d/L	p	8b-\L	p	.	.	.	.	8f/	p
4r	.	.	.	.	.	.	(>8d\	.	8B-/ 8d/	.	.	.	8d/	.	8b-\	.	4r	.	4B-/	.	8d/	.
!	!	!LO:TX:a:t=7	!	!	!	!	!	!	!	!	!	!	!	!	!	!	!	!	!	!	!	!
.	.	.	.	.	.	.	8f\J)	.	8B-/J 8d/	.	16aLL\	.	8d/J	.	8b-\J	.	.	.	.	.	8f/J	.
.	.	.	.	.	.	.	.	.	.	.	16b-\JJ	.	.	.	.	.	.	.	.	.	.	.
!	!	!	!	!	!	!	!	!	!	!	!	!	!LO:PB:g=original	!	!	!	!	!	!	!	!	!
4BB-/	.	.	.	.	.	.	(>8d\L	.	8r	.	16cc\LL	.	8r	.	8r	.	4B-\	.	4B-/	.	8d/L	.
.	.	.	.	.	.	.	.	.	.	.	16b-\	.	.	.	.	.	.	.	.	.	.	.
.	.	.	.	.	.	.	8f\)	.	8B-/L 8d/	.	16a/	.	8d/L	.	8b-\L	.	.	.	.	.	8f/	.
.	.	.	.	.	.	.	.	.	.	.	16b-\JJ	.	.	.	.	.	.	.	.	.	.	.
4r	.	.	.	.	.	.	(>8d\	.	8B-/ 8d/	.	16cc\LL	.	8d/	.	8b-\	.	4r	.	4B-/	.	8d/	.
.	.	.	.	.	.	.	.	.	.	.	16b-\	.	.	.	.	.	.	.	.	.	.	.
.	.	.	.	.	.	.	8f\J)	.	8B-/J 8d/	.	16a/	.	8d/J	.	8b-\J	.	.	.	.	.	8f/J	.
.	.	.	.	.	.	.	.	.	.	.	16b-\JJ	.	.	.	.	.	.	.	.	.	.	.
=23	=23	=23	=23	=23	=23	=23	=23	=23	=23	=23	=23	=23	=23	=23	=23	=23	=23	=23	=23	=23	=23	=23
!	!	!	!	!	!	!	!LO:PB:g=original	!	!LO:PB:g=original	!	!	!	!	!	!	!	!	!	!	!	!	!
4FF/	.	.	.	.	.	.	(>8e-\L	.	8r	.	(>8gg\L	.	8r	.	8r	.	4F\	.	4c/	.	8e-/L	.
.	.	.	.	.	.	.	8f\)	.	8c/L 8e-/	.	8ff\J)	.	8f/L	.	8cc\L	.	.	.	.	.	8f/	.
4r	.	.	.	.	.	.	(>8e-\	.	8c/ 8e-/	.	4.cc\	.	8f/	.	8cc\	.	4r	.	4c/	.	8e-/	.
.	.	.	.	.	.	.	8f\J)	.	8c/J 8e-/	.	.	.	8f/J	.	8cc\J	.	.	.	.	.	8f/J	.
4FF/	.	.	.	.	.	.	(>8e-\L	.	8r	.	.	.	8r	.	8r	.	4FF/	.	4c/	.	8e-/L	.
*	*	*	*	*	*	*	*	*	*rep	*	*	*	*	*	*	*	*	*	*	*	*	*
.	.	.	.	.	.	.	8f\)	.	8c/L 8e-/	.	16ee-\LL	.	8f/L	.	8cc\L	.	.	.	.	.	8f/	.
.	.	.	.	.	.	.	.	.	.	.	16ee-\JJ	.	.	.	.	.	.	.	.	.	.	.
4r	.	.	.	.	.	.	(>8e-\	.	8c/ 8e-/	.	8ee-\L	.	8f/	.	8cc\	.	4r	.	4c/	.	8e-/	.
.	.	.	.	.	.	.	8f\J)	.	8c/J 8e-/	.	8ee-\J	.	8f/J	.	8cc\J	.	.	.	.	.	8f/J	.
*	*	*	*	*	*	*	*	*	*Xrep	*	*	*	*	*	*	*	*	*	*	*	*	*
=24	=24	=24	=24	=24	=24	=24	=24	=24	=24	=24	=24	=24	=24	=24	=24	=24	=24	=24	=24	=24	=24	=24
!	!	!	!	!	!	!	!	!	!	!	!LO:PB:g=original	!	!	!	!LO:PB:g=original	!	!	!	!	!	!	!
4FF/	.	.	.	.	.	.	(>8e-\L	.	8r	.	(>8ee-\L	.	8r	.	8r	.	4F\	.	4c/	.	8e-/L	.
.	.	.	.	.	.	.	8f\)	.	8c/L 8e-/	.	8dd\	.	8f/L	.	8cc\L	.	.	.	.	.	8f/	.
4r	.	.	.	.	.	.	(>8e-\	.	8c/ 8e-/	.	8cc\	.	8f/	.	8cc\	.	4r	.	4c/	.	8e-/	.
.	.	.	.	.	.	.	8f\J)	.	8c/J 8e-/	.	8b-\J)	.	8f/J	.	8cc\J	.	.	.	.	.	8f/J	.
*	*	*	*	*	*	*	*	*	*	*	*	*	*	*	*	*	*	*	*	*	*rep	*
4FF/	.	.	.	.	.	.	(>8e-\L	.	8r	.	16cc\LL	.	8r	.	8r	.	4F\	.	4c/	.	8e-/L	.
.	.	.	.	.	.	.	.	.	.	.	16b-\	.	.	.	.	.	.	.	.	.	.	.
*	*	*	*	*	*	*	*	*	*rep	*	*	*	*	*	*rep	*	*	*	*	*	*	*
.	.	.	.	.	.	.	8f\)	.	8c/L 8e-/	.	16a/	.	8f/L	.	8cc\L	.	.	.	.	.	8f/	.
.	.	.	.	.	.	.	.	.	.	.	16b-\JJ	.	.	.	.	.	.	.	.	.	.	.
4r	.	.	.	.	.	.	(>8e-\	.	8c/ 8e-/	.	16cc\LL	.	8f/	.	8cc\	.	4r	.	4c/	.	8e-/	.
.	.	.	.	.	.	.	.	.	.	.	16b-\	.	.	.	.	.	.	.	.	.	.	.
.	.	.	.	.	.	.	8f\J)	.	8c/J 8e-/	.	16a/	.	8f/J	.	8cc\J	.	.	.	.	.	8f/J	.
.	.	.	.	.	.	.	.	.	.	.	16b-\JJ	.	.	.	.	.	.	.	.	.	.	.
*	*	*	*	*	*	*	*	*	*Xrep	*	*	*	*	*	*Xrep	*	*	*	*	*	*Xrep	*
=25	=25	=25	=25	=25	=25	=25	=25	=25	=25	=25	=25	=25	=25	=25	=25	=25	=25	=25	=25	=25	=25	=25
!	!	!	!	!	!	!	!	!	!	!	!	!	!	!	!	!	!	!	!LO:PB:g=original	!	!	!
4BB-/	.	.	.	.	.	.	(>8d\L	.	8r	.	8dd\L	.	8r	.	8r	.	4BB-/	.	4B-/	.	8d/L	.
.	.	.	.	.	.	.	8f\)	.	8B-/L 8d/	.	8b-\J	.	8d/L	.	8b-\L	.	.	.	.	.	8f/	.
!	!	!	!	!	!	!	!	!	!	!	!	!LO:DY:a	!	!	!	!	!	!	!	!	!	!
4r	.	.	.	.	.	.	(>8d\	.	8B-/ 8d/	.	8f/L	f	8d/	.	8b-\	.	4r	.	4B-/	.	8d/	.
!	!	!	!	!	!	!	!	!	!	!	!LO:TX:t=P:mixed beam:problem	!	!	!	!	!	!	!	!	!	!	!
.	.	.	.	.	.	.	8f\J)	.	8B-/J 8d/	.	8ff\J	.	8d/J	.	8b-\J	.	.	.	.	.	8f/J	.
*	*	*	*	*	*	*	*	*	*	*	*	*	*	*	*	*	*	*	*	*	*rep	*
4BB-/	.	.	.	.	.	.	(>8d\L	.	8r	.	8f/L	.	8r	.	8r	.	4B-\	.	4B-/	.	8d/L	.
*	*	*	*	*	*	*	*	*	*rep	*	*	*	*rep	*	*rep	*	*	*	*	*	*	*
.	.	.	.	.	.	.	8f\)	.	8B-/L 8d/	.	8f/	.	8d/L	.	8b-\L	.	.	.	.	.	8f/	.
4r	.	.	.	.	.	.	(>8d\	.	8B-/ 8d/	.	8g/	.	8d/	.	8b-\	.	4r	.	4B-/	.	8d/	.
.	.	.	.	.	.	.	8f\J)	.	8B-/J 8d/	.	8a/J	.	8d/J	.	8b-\J	.	.	.	.	.	8f/J	.
*	*	*	*	*	*	*	*	*	*Xrep	*	*	*	*Xrep	*	*Xrep	*	*	*	*	*	*Xrep	*
=26	=26	=26	=26	=26	=26	=26	=26	=26	=26	=26	=26	=26	=26	=26	=26	=26	=26	=26	=26	=26	=26	=26
!	!	!	!	!	!	!	!	!	!	!	!	!LO:DY:a	!	!	!	!	!	!	!	!	!	!
4BB-/	.	0r	.	0r	.	.	(>8d\L	.	8r	.	4.b-\	p	8r	.	8r	.	4BB-/	.	4B-/	.	8d/L	.
.	.	.	.	.	.	.	8f\)	.	8B-/L 8d/	.	.	.	8d/L	.	8b-\L	.	.	.	.	.	8f/	.
4r	.	.	.	.	.	.	(>8d\	.	8B-/ 8d/	.	.	.	8d/	.	8b-\	.	4r	.	4B-/	.	8d/	.
.	.	.	.	.	.	.	8f\J)	.	8B-/J 8d/	.	16aLL\	.	8d/J	.	8b-\J	.	.	.	.	.	8f/J	.
.	.	.	.	.	.	.	.	.	.	.	16b-\JJ	.	.	.	.	.	.	.	.	.	.	.
*	*	*	*	*	*	*	*	*	*	*	*	*	*	*	*	*	*	*	*	*	*rep	*
4BB-/	.	.	.	.	.	.	(>8d\L	.	8r	.	16cc\LL	.	8r	.	8r	.	4B-\	.	4B-/	.	8d/L	.
.	.	.	.	.	.	.	.	.	.	.	16b-\	.	.	.	.	.	.	.	.	.	.	.
*	*	*	*	*	*	*	*	*	*rep	*	*	*	*rep	*	*rep	*	*	*	*	*	*	*
.	.	.	.	.	.	.	8f\)	.	8B-/L 8d/	.	16a/	.	8d/L	.	8b-\L	.	.	.	.	.	8f/	.
.	.	.	.	.	.	.	.	.	.	.	16b-\JJ	.	.	.	.	.	.	.	.	.	.	.
4r	.	.	.	.	.	.	(>8d\	.	8B-/ 8d/	.	16cc\LL	.	8d/	.	8b-\	.	4r	.	4B-/	.	8d/	.
.	.	.	.	.	.	.	.	.	.	.	16b-\	.	.	.	.	.	.	.	.	.	.	.
.	.	.	.	.	.	.	8f\J)	.	8B-/J 8d/	.	16a/	.	8d/J	.	8b-\J	.	.	.	.	.	8f/J	.
.	.	.	.	.	.	.	.	.	.	.	16b-\JJ	.	.	.	.	.	.	.	.	.	.	.
*	*	*	*	*	*	*	*	*	*Xrep	*	*	*	*Xrep	*	*Xrep	*	*	*	*	*	*Xrep	*
=27	=27	=27	=27	=27	=27	=27	=27	=27	=27	=27	=27	=27	=27	=27	=27	=27	=27	=27	=27	=27	=27	=27
!	!	!	!	!	!	!	!	!	!	!	!	!	!	!	!	!	!	!	!	!	!LO:PB:g=original	!
4F\	.	.	.	.	.	.	(>8e-\L	.	8r	.	(>8gg\L	.	8r	.	8r	.	4F\	.	4c/	.	8e-/L	.
.	.	.	.	.	.	.	8f\)	.	8c/L 8e-/	.	8ff\J)	.	8f/L	.	8cc\L	.	.	.	.	.	8f/	.
4r	.	.	.	.	.	.	(>8e-\	.	8c/ 8e-/	.	4.cc\	.	8f/	.	8cc\	.	4r	.	4c/	.	8e-/	.
.	.	.	.	.	.	.	8f\J)	.	8c/J 8e-/	.	.	.	8f/J	.	8cc\J	.	.	.	.	.	8f/J	.
4FF/	.	.	.	.	.	.	(>8e-\L	.	8r	.	.	.	8r	.	8r	.	4FF/	.	4c/	.	8e-/L	.
*	*	*	*	*	*	*	*	*	*rep	*	*	*	*rep	*	*rep	*	*	*	*	*	*	*
.	.	.	.	.	.	.	8f\)	.	8c/L 8e-/	.	16ee-\LL	.	8f/L	.	8cc\L	.	.	.	.	.	8f/	.
.	.	.	.	.	.	.	.	.	.	.	16ee-\JJ	.	.	.	.	.	.	.	.	.	.	.
4r	.	.	.	.	.	.	(>8e-\	.	8c/ 8e-/	.	8ee-\L	.	8f/	.	8cc\	.	4r	.	4c/	.	8e-/	.
.	.	.	.	.	.	.	8f\J)	.	8c/J 8e-/	.	8ee-\J	.	8f/J	.	8cc\J	.	.	.	.	.	8f/J	.
*	*	*	*	*	*	*	*	*	*Xrep	*	*	*	*Xrep	*	*Xrep	*	*	*	*	*	*	*
=28	=28	=28	=28	=28	=28	=28	=28	=28	=28	=28	=28	=28	=28	=28	=28	=28	=28	=28	=28	=28	=28	=28
!	!	!	!	!	!	!	!	!	!	!	!	!LO:DY:a	!	!	!	!	!	!	!	!	!	!
4B-\	.	1r	.	1r	.	.	4B-/	.	4dd\	.	8dd\L	f	4d/	.	4b-\	.	2B-\	.	4B-/	.	4d/	.
.	.	.	.	.	.	.	.	.	.	.	8ff\	.	.	.	.	.	.	.	.	.	.	.
!	!LO:DY:a	!	!	!	!	!	!	!	!	!	!	!	!	!	!	!	!	!	!	!	!	!
4BB-/	f	.	.	.	.	.	4d/	.	4dd\	.	8bb-\	.	4d/	.	4b-\	.	.	.	4B-/	.	4d/	.
.	.	.	.	.	.	.	.	.	.	.	8ddd\J	.	.	.	.	.	.	.	.	.	.	.
4E-\	.	.	.	.	.	.	4f\	.	4ee-\	.	8ddd\L	.	4f/	.	4cc\	.	4E-\	.	4c/	.	4e-/	.
.	.	.	.	.	.	.	.	.	.	.	8ccc\	.	.	.	.	.	.	.	.	.	.	.
4F\	.	.	.	.	.	.	4F/	.	4ee-\	.	8aa\	.	4f/	.	4cc\	.	4F\	.	4c/	.	4e-/	.
.	.	.	.	.	.	.	.	.	.	.	16ccc\L	.	.	.	.	.	.	.	.	.	.	.
.	.	.	.	.	.	.	.	.	.	.	16ddd\JJ	.	.	.	.	.	.	.	.	.	.	.
=29	=29	=29	=29	=29	=29	=29	=29	=29	=29	=29	=29	=29	=29	=29	=29	=29	=29	=29	=29	=29	=29	=29
!LO:PB:g=original	!	!	!	!	!	!	!	!	!LO:PB:g=original	!	!LO:PB:g=original	!	!	!	!	!	!LO:PB:g=original	!LO:DY:a	!	!	!	!
4BB-/	.	2r	.	2r	.	.	4F/	.	4ee-\	.	4ccc\	.	4f/	.	4cc\	.	8r	p	4c/	.	4e-/	.
!	!	!	!	!	!	!	!	!	!	!	!	!	!	!	!	!	!LO:TX:t=P:mixed beam:problem	!	!	!	!	!
.	.	.	.	.	.	.	.	.	.	.	.	.	.	.	.	.	8BB-L/	.	.	.	.	.
4BB-/	.	.	.	.	.	.	4B-/	.	4dd\	.	4bb-\	.	4d/	.	4b-\	.	8B-\	.	4B-/	.	4d/	.
.	.	.	.	.	.	.	.	.	.	.	.	.	.	.	.	.	8F\	.	.	.	.	.
4BB-/	.	4r	.	4r	.	.	2r	.	4r	.	4r	.	2r	.	2r	.	8DJ\	.	2r	.	2r	.
.	.	.	.	.	.	.	.	.	.	.	.	.	.	.	.	.	4BB-/	.	.	.	.	.
!	!	!LO:TX:a:i:t=dol:	!	!LO:TX:a:i:t=dolce.	!	!	!	!	!LO:TX:a:i:t=dolce	!	!	!LO:DY:a	!	!	!	!	!	!	!	!	!	!
4r	.	8A\	Ti-	8cc\	Ti-	.	.	.	4a/	.	8cc\L	p	.	.	.	.	.	.	.	.	.	.
.	.	8A\	-bi	8cc\	-bi	.	.	.	.	.	8cc\J	.	.	.	.	.	8r	.	.	.	.	.
=30	=30	=30	=30	=30	=30	=30	=30	=30	=30	=30	=30	=30	=30	=30	=30	=30	=30	=30	=30	=30	=30	=30
!	!	!LO:PB:g=original	!	!	!	!LO:PB:g=original	!	!	!	!	!	!	!	!	!	!	!	!	!	!	!	!
!	!LO:DY:a	!	!	!	!	!	!	!LO:DY:a	!	!	!	!	!	!	!	!	!	!LO:DY:a	!	!LO:DY:a	!	!LO:DY:a
4F\	p	4.A/	ho-	4.cc\	ho-	.	8f\L	p	4.a/	.	4.cc\	.	0r	.	0r	.	4F\	p	4a/	p	4cc\	p
.	.	.	.	.	.	.	8f\	.	.	.	.	.	.	.	.	.	.	.	.	.	.	.
!	!	!	!	!	!	!	!	!	!	!	!	!	!	!	!LO:TX:a:t=3.	!	!	!	!	!	!	!
4F\	.	.	.	.	.	.	8f\	.	.	.	.	.	.	.	.	.	4F\	.	4f\	.	4a/	.
.	.	8F/	-nor	8a\	-nor	.	8f\J	.	8fn/	.	8a\	.	.	.	.	.	.	.	.	.	.	.
4C/	.	(<8En/L	Nu-	(>8g\L	Nu-	.	8f\L	.	(<8en/L	.	(<8g/L	.	.	.	.	.	4C\	.	8eX/L	.	8g/L	.
.	.	8F/J)	.	8a\J	.	.	8f\	.	8f/	.	8a/	.	.	.	.	.	.	.	8f/	.	8a/	.
4C/	.	(<8G/L	-mi-	8b-\L	-mi-	.	8f\	.	8g/	.	8b-\	.	.	.	.	.	4C\	.	8g/	.	8b-\	.
.	.	8A\J)	.	8cc\J)	.	.	8f\J	.	8a/J)	.	8cc\J)	.	.	.	.	.	.	.	8a/J	.	8cc\J	.
=31	=31	=31	=31	=31	=31	=31	=31	=31	=31	=31	=31	=31	=31	=31	=31	=31	=31	=31	=31	=31	=31	=31
.	.	8qqA/	.	8qqcc/	.	.	.	.	8qqa/	.	.	.	.	.	.	.	.	.	.	.	.	.
4C/	.	(<4G/	.	4b-\	-nis	.	8f\L	.	(<4g/	.	(>8cc\L	.	.	.	.	.	4C\	.	4g/	.	4b-\	.
.	.	.	.	.	.	.	8f\	.	.	.	8b-\J)	.	.	.	.	.	.	.	.	.	.	.
4FF/	.	4F/)	-nis	4a\	.	.	8f\	.	4f/)	.	4.a/	.	.	.	.	.	4F\	.	4f/	.	4a/	.
.	.	.	.	.	.	.	8f\J	.	.	.	.	.	.	.	.	.	.	.	.	.	.	.
2r	.	4r	.	4r	.	.	8f\L	.	4f/	.	.	.	.	.	.	.	2r	.	4r	.	4r	.
.	.	.	.	.	.	.	8f\	.	.	.	(>16ff\LL	.	.	.	.	.	.	.	.	.	.	.
.	.	.	.	.	.	.	.	.	.	.	16een\JJ	.	.	.	.	.	.	.	.	.	.	.
.	.	8A\	Reg-	8cc\	Reg-	.	8f\	.	4f/	.	16gg\LL	.	.	.	.	.	.	.	4a/	.	4cc\	.
.	.	.	.	.	.	.	.	.	.	.	16ff\	.	.	.	.	.	.	.	.	.	.	.
.	.	8A\	-num	8cc\	-num	.	8f\J	.	.	.	16ee\	.	.	.	.	.	.	.	.	.	.	.
.	.	.	.	.	.	.	.	.	.	.	16dd\JJ)	.	.	.	.	.	.	.	.	.	.	.
=32	=32	=32	=32	=32	=32	=32	=32	=32	=32	=32	=32	=32	=32	=32	=32	=32	=32	=32	=32	=32	=32	=32
!	!	!	!	!LO:PB:g=original	!	!	!	!	!	!	!	!	!	!	!	!	!	!	!LO:PB:g=original	!	!	!
4FF/	.	4.A/	ba-	4.cc\	be-	.	8f\L	.	4.a/	.	4.cc\	.	1r	.	1r	.	4F\	.	4.a/	.	4.cc\	.
.	.	.	.	.	.	.	8f\	.	.	.	.	.	.	.	.	.	.	.	.	.	.	.
4F\	.	.	.	.	.	.	8f\	.	.	.	.	.	.	.	.	.	4F\	.	.	.	.	.
.	.	8F/	-a-	8a\	-a-	.	8f\J	.	8f/	.	8a/	.	.	.	.	.	.	.	8f/	.	8a/	.
4C/	.	(<8En/L	-tu-	(>8g\L	-tu-	.	8f\L	.	(<8e-/L	.	8g/L	.	.	.	.	.	4C\	.	8eX/L	.	8g/L	.
.	.	8F/J)	.	8a\J	.	.	8f\	.	8f/	.	8a/	.	.	.	.	.	.	.	8f/	.	8a/	.
4c\	.	8G/	-di-	8b-\L	-di-	.	8f\	.	8g/	.	8b-\	.	.	.	.	.	4C\	.	8g/	.	8b-\	.
.	.	8A\	.	8cc\J	.	.	8f\J	.	8a/J)	.	8cc\J	.	.	.	.	.	.	.	8a/J	.	8cc\J	.
=33	=33	=33	=33	=33	=33	=33	=33	=33	=33	=33	=33	=33	=33	=33	=33	=33	=33	=33	=33	=33	=33	=33
!	!	!	!	!	!	!	!	!	!	!	!	!LO:DY:a	!	!	!LO:PB:g=original	!	!	!	!	!	!	!
.	.	8qqA/	.	8qqcc/	.	.	.	.	.	.	8qqb-/	f	.	.	.	.	.	.	.	.	.	.
4F\	.	(<4G/	.	4b-\	-nis	.	8f\L	.	4f/	.	4a\	.	2r	.	2r	.	4F\	.	4f/	.	4a/	.
.	.	.	.	.	.	.	8f\	.	.	.	.	.	.	.	.	.	.	.	.	.	.	.
4F\	.	4F/)	-nis	4a\)	.	.	8f\	.	4a/	.	4a\ 4ff\	.	.	.	.	.	4F\	.	4r	.	4r	.
.	.	.	.	.	.	.	8f\J	.	.	.	.	.	.	.	.	.	.	.	.	.	.	.
4F\	.	4r	.	4r	.	.	4f\	.	4a/	.	4a\ 4ff\	.	4r	.	4r	.	4F\	.	4r	.	4r	.
!	!	!	!	!	!	!	!	!	!	!	!	!	!	!LO:DY:a	!	!LO:DY:a	!	!	!	!LO:DY:a	!	!
*	*	*	*	*	*	*	*Xtremolo	*	*	*	*	*	*	*	*	*	*	*	*	*	*Xtremolo	*
4r	.	8F/	tu-	8cc\	tu-	.	8f\L	.	8a/L	.	8cc\L	.	8f/L	f	8cc\L	f	4r	.	8a/L	f	8cc\L	f
!	!	!	!	!	!	!	!	!	!	!LO:DY:a	!	!	!	!	!	!	!	!	!	!	!	!
.	.	8F/	-di-	8cc\	-di-	.	8f\J	.	8a/J	f	8cc\J	.	8f/J	.	8cc\J	.	.	.	8a/J	.	8cc\J	.
=34	=34	=34	=34	=34	=34	=34	=34	=34	=34	=34	=34	=34	=34	=34	=34	=34	=34	=34	=34	=34	=34	=34
!	!	!	!	!	!	!	!	!	!	!	!	!	!	!	!	!	!	!	!	!	!LO:PB:g=original	!
4r	.	(<4B-/	-nis	(>4dd\	-nis	.	4b-\	.	4b-/	.	4dd\	.	4b-\	.	4dd\	.	4r	.	4b-\	.	4dd\	.
!	!LO:DY:a	!	!	!	!	!	!	!	!	!	!	!	!	!	!	!	!	!LO:DY:a	!	!	!	!
8F\L	f	4F/)	.	4cc\)	.	.	4f\	.	4a/	.	4cc\	.	4f/	.	4cc\	.	8F\L	f	4a/	.	4cc\	.
8F\J	.	.	.	.	.	.	.	.	.	.	.	.	.	.	.	.	8F\J	.	.	.	.	.
4FF/	.	4r	.	4r	.	.	4f\	.	4a/	.	4cc\	.	4f/	.	4cc\	.	4F\	.	4r	.	4r	.
!	!	!	!	!	!	!	!	!LO:DY:a	!	!	!	!	!	!	!	!	!	!	!	!	!	!
*	*	*	*	*	*ij	*	*	*	*	*	*	*	*	*	*	*	*	*	*	*	*	*
4r	.	8F/	tu-	8cc\	tu-	.	8f\L	f	8a/L	.	8cc\L	.	8f/L	.	8cc\L	.	4r	.	8a/L	.	8cc\L	.
.	.	8F/	-di-	8cc\	-di-	.	8f\J	.	8a/J	.	8cc\J	.	8f/J	.	8cc\J	.	.	.	8a/J	.	8cc\J	.
=35	=35	=35	=35	=35	=35	=35	=35	=35	=35	=35	=35	=35	=35	=35	=35	=35	=35	=35	=35	=35	=35	=35
!	!	!LO:PB:g=original	!	!	!	!	!	!LO:PB:g=original	!	!LO:PB:g=original	!	!	!	!	!	!	!	!	!	!	!	!
4r	.	(<4B-/	-nis	4dd\	-nis	.	4b-\	.	4b-/	.	4dd\	.	4b-\	.	4dd\	.	4r	.	4b-\	.	4dd\	.
*	*	*	*	*	*Xij	*	*	*	*	*	*	*	*	*	*	*	*	*	*	*	*	*
8F\L	.	4F/)	.	4cc\	.	.	4f\	.	4a/	.	4cc\	.	4f/	.	4cc\	.	8F\L	.	4a/	.	4cc\	.
8F\J	.	.	.	.	.	.	.	.	.	.	.	.	.	.	.	.	8F\J	.	.	.	.	.
4FF/	.	4r	.	4r	.	.	4f\	.	4a/	.	4cc\	.	4f/	.	4cc\	.	4F\	.	4r	.	4r	.
4r	.	8F/	ho-	8cc\	ho-	.	8f\L	.	8a/L	.	8cc\L	.	8f/L	.	8cc\L	.	4r	.	8a/L	.	8cc\L	.
.	.	8F/	-nor	8cc\	-nor	.	8f\J	.	8a/J	.	8cc\J	.	8f/J	.	8cc\J	.	.	.	8a/J	.	8cc\J	.
=36	=36	=36	=36	=36	=36	=36	=36	=36	=36	=36	=36	=36	=36	=36	=36	=36	=36	=36	=36	=36	=36	=36
!LO:PB:g=original	!	!	!	!	!	!	!	!	!	!	!	!	!	!	!	!	!LO:PB:g=original	!	!	!	!	!
4BB-/	.	4B-\	Nu-	(>4dd\	Nu-	.	4b-\	.	4b-/	.	4dd\	.	4b-\	.	4dd\	.	4B-\	.	4b-\	.	4dd\	.
4GG/	.	4B-\	.	4gg\	.	.	4g\	.	4b-/	.	4gg\	.	4r	.	4r	.	4G\	.	4r	.	4r	.
4C/	.	4c\	.	4ff\	.	.	4cc\	.	4a/	.	4ff\	.	4r	.	4r	.	4c\	.	2r	.	2r	.
4CC/	.	4c\	-mi-	4een\)	-mi-	.	4c/	.	4g/	.	4een\	.	8f/L	.	8cc\L	.	4C/	.	.	.	.	.
.	.	.	.	.	.	.	.	.	.	.	.	.	8f/J	.	8cc\J	.	.	.	.	.	.	.
=37	=37	=37	=37	=37	=37	=37	=37	=37	=37	=37	=37	=37	=37	=37	=37	=37	=37	=37	=37	=37	=37	=37
!	!	!	!	!LO:PB:g=original	!	!	!	!	!	!	!	!	!	!	!	!	!	!	!	!	!	!
8FFL/	.	4A\	-nis	4ff\	-nis	.	8f\L	.	4a/	.	4a\ 4ff\	.	4f/	.	4cc\	.	8F\L	.	2r	.	2r	.
!LO:TX:t=P:mixed beam:problem	!	!	!	!	!	!	!	!	!	!	!	!	!	!	!	!	!	!	!	!	!	!
8F\	.	.	.	.	.	.	8f\	.	.	.	.	.	.	.	.	.	8F\	.	.	.	.	.
8C\	.	4r	.	4r	.	.	8c\	.	4a/	.	4a\ 4ff\	.	4f/	.	4cc\	.	8C/	.	.	.	.	.
8AAJ\	.	.	.	.	.	.	8A/J	.	.	.	.	.	.	.	.	.	8AA/J	.	.	.	.	.
4FF/	.	2r	.	2r	.	.	4F/	.	4a/	.	4a\ 4ff\	.	4f/	.	4cc\	.	4FF/	.	4r	.	4r	.
!	!	!	!	!	!	!	!	!	!	!	!	!	!	!	!	!	!	!	!LO:TX:a:i:t=dolc:	!	!LO:TX:a:i:t=dolc:	!
4r	.	.	.	.	.	.	4r	.	4r	.	8f/L	p	4r	.	4r	.	4r	.	8dd\L	.	8ff\L	.
.	.	.	.	.	.	.	.	.	.	.	8f/J	.	.	.	.	.	.	.	8dd\J	.	8ff\J	.
=38	=38	=38	=38	=38	=38	=38	=38	=38	=38	=38	=38	=38	=38	=38	=38	=38	=38	=38	=38	=38	=38	=38
!	!	!	!	!	!	!	!	!	!	!	!	!	!LO:PB:g=original	!	!	!	!	!	!	!	!	!
!	!LO:DY:a	!	!	!	!	!	!LO:PB:g=original	!LO:DY:a	!	!	!	!	!LO:TX:a:i:t=dolce	!	!LO:TX:a:i:t=dolce	!	!	!LO:DY:a	!LO:PB:g=original	!	!	!
*	*	*	*	*	*	*	*tremolo	*	*	*	*	*	*	*	*	*	*	*	*	*	*	*
4BB-/	p	00r	.	00r	.	.	8b-\L	p	4.d/	p	4.f/	.	4.dd\	.	4.ff\	.	4BB-/	p	4.dd\	.	4.ff\	.
.	.	.	.	.	.	.	8b-\	.	.	.	.	.	.	.	.	.	.	.	.	.	.	.
4BB-/	.	.	.	.	.	.	8b-\	.	.	.	.	.	.	.	.	.	4B-\	.	.	.	.	.
.	.	.	.	.	.	.	8b-\J	.	8B-/	.	8d/	.	8b-\	.	8dd\	.	.	.	8b-\	.	8dd\	.
4F\	.	.	.	.	.	.	8b-\L	.	(<8A/L	.	8c/L	.	(>8f/L	.	(>8cc\L	.	4F\	.	(>8a/L	.	(>8cc\L	.
.	.	.	.	.	.	.	8b-\	.	8B-/	.	8d/	.	8b-\	.	8dd\	.	.	.	8b-\	.	8dd\	.
4FF/	.	.	.	.	.	.	8b-\	.	8c/	.	8e-/	.	8cc\	.	8ee-\	.	4F\	.	8cc\	.	8ee-\	.
.	.	.	.	.	.	.	8b-\J	.	8d/J)	.	8f/J	.	8dd\J)	.	8ff\J)	.	.	.	8dd\J)	.	8ff\J	.
=39	=39	=39	=39	=39	=39	=39	=39	=39	=39	=39	=39	=39	=39	=39	=39	=39	=39	=39	=39	=39	=39	=39
4FF/	.	.	.	.	.	.	8b-\L	.	(<4c/	???	4e-/	.	(>8dd\L	.	(>8ff\L	.	4FF/	.	(>8dd\L	.	8ff\L	.
.	.	.	.	.	.	.	8b-\	.	.	.	.	.	8cc\J)	.	8ee-\J)	.	.	.	8cc\J)	.	8ee-\J)	.
4BB-/	.	.	.	.	.	.	8b-\	.	4B-/)	.	8d/'L	.	4b-\	.	4dd\	.	4BB-/	.	4b-\	.	4dd\	.
.	.	.	.	.	.	.	8b-\J	.	.	.	8f/'	.	.	.	.	.	.	.	.	.	.	.
2r	.	.	.	.	.	.	8b-\L	.	2r	.	8b-\'	.	4r	.	4r	.	2r	.	4r	.	4r	.
.	.	.	.	.	.	.	8b-\	.	.	.	8dd\'J	.	.	.	.	.	.	.	.	.	.	.
.	.	.	.	.	.	.	8b-\	.	.	.	8ff\'L	.	4r	.	4r	.	.	.	8dd\L	.	8ff\L	.
.	.	.	.	.	.	.	8b-\J	.	.	.	8bb-\'J	.	.	.	.	.	.	.	8dd\J	.	8ff\J	.
=40	=40	=40	=40	=40	=40	=40	=40	=40	=40	=40	=40	=40	=40	=40	=40	=40	=40	=40	=40	=40	=40	=40
!	!	!	!	!	!	!	!	!	!	!	!	!	!	!	!LO:PB:g=original	!	!	!	!	!	!	!
4BB-/	.	.	.	.	.	.	8b-\L	.	4.d/	.	4.f/	.	4.dd\	.	4.ff\	.	4BB-/	.	4.dd\	.	4.ff\	.
.	.	.	.	.	.	.	8b-\	.	.	.	.	.	.	.	.	.	.	.	.	.	.	.
4BB-/	.	.	.	.	.	.	8b-\	.	.	.	.	.	.	.	.	.	4B-\	.	.	.	.	.
.	.	.	.	.	.	.	8b-\J	.	8B-/	.	8d/	.	8b-\	.	8dd\	.	.	.	8b-\	.	8dd\	.
!	!	!	!	!	!	!	!	!	!	!	!	!	!	!	!	!	!	!	!	!	!LO:PB:g=original	!
4F\	.	.	.	.	.	.	8b-\L	.	(<8A/L	.	8c/L	.	(>8f/L	.	(>8cc\L	.	4FF/	.	(>8a/L	.	(>8cc\L	.
.	.	.	.	.	.	.	8b-\	.	8B-/	.	8d/	.	8b-\	.	8dd\	.	.	.	8b-\	.	8dd\	.
4F\	.	.	.	.	.	.	8b-\	.	8c/	.	8e-/	.	8cc\	.	8ee-\	.	4F\	.	8cc\	.	8ee-\	.
.	.	.	.	.	.	.	8b-\J	.	8d/J)	.	8f/J	.	8dd\J)	.	8ff\J)	.	.	.	8dd\J)	.	8ff\J)	.
=41	=41	=41	=41	=41	=41	=41	=41	=41	=41	=41	=41	=41	=41	=41	=41	=41	=41	=41	=41	=41	=41	=41
4F\	.	.	.	.	.	.	4f\	.	(<4c/	.	4e-/	.	(>4cc\	.	(>4ee-\	.	4F\	.	(>4cc\	.	(>4ee-\	.
4B-\	.	.	.	.	.	.	4b-\	.	4B-/)	.	8d/L	.	4b-\)	.	4dd\)	.	4BB-/	.	4b-\)	.	4dd\)	.
.	.	.	.	.	.	.	.	.	.	.	8f/	.	.	.	.	.	.	.	.	.	.	.
4BB-/	.	.	.	.	.	.	2r	.	2r	.	8b-\	.	4r	.	4r	.	4BB-/	.	4r	.	4r	.
.	.	.	.	.	.	.	.	.	.	.	8dd\J	.	.	.	.	.	.	.	.	.	.	.
!	!	!	!	!	!	!	!	!	!	!	!LO:PB:g=original	!	!	!	!	!	!	!	!	!	!	!
4r	.	.	.	.	.	.	.	.	.	.	8ff\L	.	4r	.	4r	.	4r	.	8dd\L	.	8ff\L	.
.	.	.	.	.	.	.	.	.	.	.	8bb-\J	.	.	.	.	.	.	.	8dd\J	.	8ff\J	.
=42	=42	=42	=42	=42	=42	=42	=42	=42	=42	=42	=42	=42	=42	=42	=42	=42	=42	=42	=42	=42	=42	=42
!	!	!	!	!	!	!	!	!	!LO:PB:g=original	!	!	!	!	!	!	!	!	!	!	!	!	!
.	.	.	.	.	.	.	.	.	8qqff\	.	.	.	.	.	.	.	.	.	.	.	.	.
4E-\	.	00r	.	1r	.	.	4e-\	.	4ee-\	.	4gg\	.	4cc\	.	4ee-\	.	4E-\	.	4ee-X\	.	4gg\	.
4C/	.	.	.	.	.	.	4c\	.	4ee-\	.	4ccc\	.	4cc\	.	4ee-\	.	4C/	.	4ee-\	.	4ccc\	.
4F\	.	.	.	.	.	.	4f\	.	4dd\	.	4bb-\	.	4b-\	.	4dd\	.	4F\	.	4dd\	.	4bb-\	.
4FF/	.	.	.	.	.	.	4F/	.	4cc\	.	4aa\	.	4f/	.	4cc\	.	4FF/	.	4cc\	.	4aan\	.
=43	=43	=43	=43	=43	=43	=43	=43	=43	=43	=43	=43	=43	=43	=43	=43	=43	=43	=43	=43	=43	=43	=43
!LO:PB:g=original	!	!	!	!	!	!	!	!	!	!	!	!	!	!	!	!	!LO:PB:g=original	!	!	!	!	!
8BB-L/	.	.	.	2r	.	.	8b-\L	.	4dd\	.	4bb-\	.	4b-\	.	4dd\	.	8BB-L/	???	4dd\	.	4bb-\	.
!LO:TX:t=P:mixed beam:problem	!	!	!	!	!	!	!	!	!	!	!	!	!	!	!	!	!LO:TX:t=P:mixed beam:problem	!	!	!	!	!
8B-\	.	.	.	.	.	.	8b-\	.	.	.	.	f	.	.	.	.	8B-\	.	.	.	.	.
8F\	.	.	.	.	.	.	8f\	.	4r	.	16B-/LL	.	4r	.	4r	.	8F\	.	4r	.	4b-\	.
.	.	.	.	.	.	.	.	.	.	.	16c/	.	.	.	.	.	.	.	.	.	.	.
8DJ\	.	.	.	.	.	.	8d\J	.	.	.	16d/	.	.	.	.	.	8DJ\	.	.	.	.	.
.	.	.	.	.	.	.	.	.	.	.	16c/JJ	.	.	.	.	.	.	.	.	.	.	.
4BB-/	.	.	.	4r	.	.	4B-/	.	2r	.	4B-/	.	2r	.	2r	.	4BB-/	.	2r	.	4b-\	.
!	!	!	!	!LO:TX:a:i:t=Solo	!	!	!	!	!	!	!	!	!	!	!	!	!	!	!	!	!	!
4r	.	.	.	8fL/	Je-	.	4r	.	.	.	4r	.	.	.	.	.	4r	.	.	.	4r	.
.	.	.	.	8b-\J	.	.	.	.	.	.	.	.	.	.	.	.	.	.	.	.	.	.
=44	=44	=44	=44	=44	=44	=44	=44	=44	=44	=44	=44	=44	=44	=44	=44	=44	=44	=44	=44	=44	=44	=44
!	!	!	!	!	!	!	!	!	!	!	!	!LO:DY:a	!	!	!	!	!	!LO:DY:a	!LO:PB:g=original	!	!	!
*	*	*	*	*	*	*	*Xtremolo	*	*	*	*	*	*	*	*	*	*	*	*	*	*	*
4BB-/	p	.	.	(>4.dd\	.	.	8r	.	8r	p	4.dd\	p	00r	.	00r	.	4BB-/	p	00r	.	00r	.
!	!	!	!	!	!	!	!	!LO:DY:a	!	!	!	!	!	!	!	!	!	!	!	!	!	!
.	.	.	.	.	.	.	8f\L	p	8B-/L 8d/	.	.	.	.	.	.	.	.	.	.	.	.	.
4r	.	.	.	.	.	.	8f\	.	8B-/ 8d/	.	.	.	.	.	.	.	4r	.	.	.	.	.
.	.	.	.	8cc\	.	.	8f\J	.	8B-/J 8d/	.	8cc\	.	.	.	.	.	.	.	.	.	.	.
4BB-/	.	.	.	8b-\L	.	.	8r	.	8r	.	(>8b-L\	.	.	.	.	.	4B-\	.	.	.	.	.
!	!	!	!	!	!	!	!	!	!	!	!	!	!LO:TX:a:t=16.	!	!LO:TX:a:t=16.	!	!	!	!LO:TX:a:t=16.	!	!LO:TX:a:t=16.	!
*	*	*	*	*	*	*	*	*	*rep	*	*	*	*	*	*	*	*	*	*	*	*	*
.	.	.	.	8a\)	.	.	8f\L	.	8B-/L 8d/	.	8a/	.	.	.	.	.	.	.	.	.	.	.
4r	.	.	.	8g\	-su	.	8f\	.	8B-/ 8d/	.	8g/	.	.	.	.	.	4r	.	.	.	.	.
.	.	.	.	8f/J	.	.	8f\J	.	8B-/J 8d/	.	8d/J)	.	.	.	.	.	.	.	.	.	.	.
*	*	*	*	*	*	*	*	*	*Xrep	*	*	*	*	*	*	*	*	*	*	*	*	*
=45	=45	=45	=45	=45	=45	=45	=45	=45	=45	=45	=45	=45	=45	=45	=45	=45	=45	=45	=45	=45	=45	=45
4FF/	.	.	.	(<8f/L	de-	.	8r	.	8r	???	(<8d/L	.	.	.	.	.	4F\	.	.	.	.	.
.	.	.	.	8en/J)	.	.	8f\L	.	8c/L 8e-/	.	8c/J)	.	.	.	.	.	.	.	.	.	.	.
4r	.	.	.	4e-X/	-cus	.	8f\	.	8c/ 8e-/	.	4c/	.	.	.	.	.	4r	.	.	.	.	.
.	.	.	.	.	.	.	8f\J	.	8c/J 8e-/	.	.	.	.	.	.	.	.	.	.	.	.	.
4FF/	.	.	.	4r	.	.	8r	.	8r	.	4r	.	.	.	.	.	4F\	.	.	.	.	.
*	*	*	*	*	*	*	*rep	*	*rep	*	*	*	*	*	*	*	*	*	*	*	*	*
.	.	.	.	.	.	.	8f\L	.	8c/L 8e-/	.	.	.	.	.	.	.	.	.	.	.	.	.
4r	.	.	.	8e-/L	An-	.	8f\	.	8c/ 8e-/	.	4r	.	.	.	.	.	4r	.	.	.	.	.
.	.	.	.	8a\J	.	.	8f\J	.	8c/J 8e-/	.	.	.	.	.	.	.	.	.	.	.	.	.
*	*	*	*	*	*	*	*Xrep	*	*Xrep	*	*	*	*	*	*	*	*	*	*	*	*	*
=46	=46	=46	=46	=46	=46	=46	=46	=46	=46	=46	=46	=46	=46	=46	=46	=46	=46	=46	=46	=46	=46	=46
!	!	!	!	!	!	!	!LO:PB:g=original	!	!	!	!	!	!	!	!	!	!	!	!	!	!	!
4FF/	.	00r	.	(>4.cc\	.	.	8r	.	8r	.	4.cc\	.	.	.	.	.	4FF/	.	.	.	.	.
.	.	.	.	.	.	.	8f\L	.	8c/L 8e-/	.	.	.	.	.	.	.	.	.	.	.	.	.
4r	.	.	.	.	.	.	8f\	.	8c/ 8e-/	.	.	.	.	.	.	.	4r	.	.	.	.	.
.	.	.	.	8b-\	.	.	8f\J	.	8c/J 8e-/	.	8b-\	.	.	.	.	.	.	.	.	.	.	.
4F\	.	.	.	8a\L)	.	.	8r	.	8r	.	(<16a/LL	.	.	.	.	.	4F\	.	.	.	.	.
.	.	.	.	.	.	.	.	.	.	.	16b-\	.	.	.	.	.	.	.	.	.	.	.
*	*	*	*	*	*	*	*rep	*	*rep	*	*	*	*	*	*	*	*	*	*	*	*	*
.	.	.	.	8g\	.	.	8f\L	.	8c/L 8e-/	.	16a/	.	.	.	.	.	.	.	.	.	.	.
.	.	.	.	.	.	.	.	.	.	.	16g/JJ)	.	.	.	.	.	.	.	.	.	.	.
4r	.	.	.	8f/	-ge-	.	8f\	.	8c/ 8e-/	.	(<16f/LL	.	.	.	.	.	4r	.	.	.	.	.
.	.	.	.	.	.	.	.	.	.	.	16g/	.	.	.	.	.	.	.	.	.	.	.
.	.	.	.	8e-/J	.	.	8f\J	.	8c/J 8e-/	.	16f/	.	.	.	.	.	.	.	.	.	.	.
.	.	.	.	.	.	.	.	.	.	.	16e-/JJ)	.	.	.	.	.	.	.	.	.	.	.
*	*	*	*	*	*	*	*Xrep	*	*Xrep	*	*	*	*	*	*	*	*	*	*	*	*	*
=47	=47	=47	=47	=47	=47	=47	=47	=47	=47	=47	=47	=47	=47	=47	=47	=47	=47	=47	=47	=47	=47	=47
!	!	!	!	!	!	!	!	!	!	!	!LO:PB:g=original	!	!	!	!	!	!	!	!	!	!	!
4BB-/	.	.	.	4e-/	-li-	.	8r	.	8r	.	4e-/	.	.	.	.	.	8BB-L/	.	.	.	.	.
!	!	!	!	!	!	!	!	!	!	!	!	!	!	!	!	!	!LO:TX:t=P:mixed beam:problem	!	!	!	!	!
.	.	.	.	.	.	.	8f\L	.	8B-/L 8d/	.	.	.	.	.	.	.	8B-\	.	.	.	.	.
4BB-/	.	.	.	4d/	-cum	.	8f\	.	8B-/ 8d/	.	4d/	.	.	.	.	.	8F\	.	.	.	.	.
.	.	.	.	.	.	.	8f\J	.	8B-/J 8d/	.	.	.	.	.	.	.	8DJ\	.	.	.	.	.
!	!	!	!	!LO:PB:g=original	!	!	!	!	!	!	!	!	!	!	!	!	!	!	!	!	!	!
4BB-/	.	.	.	4r	.	.	4f\	.	8r	.	4r	.	.	.	.	.	4BB-/	.	.	.	.	.
.	.	.	.	.	.	.	.	.	8B-/ 8d/	.	.	.	.	.	.	.	.	.	.	.	.	.
!	!	!	!	!	!	!	!	!	!	!	!	!LO:DY:a	!	!	!	!	!	!	!	!	!	!
4r	.	.	.	8fL/	In	.	4r	.	4r	.	4f/	p	.	.	.	.	4r	.	.	.	.	.
.	.	.	.	8b-\J	.	.	.	.	.	.	.	.	.	.	.	.	.	.	.	.	.	.
=48	=48	=48	=48	=48	=48	=48	=48	=48	=48	=48	=48	=48	=48	=48	=48	=48	=48	=48	=48	=48	=48	=48
!	!	!	!	!	!	!	!	!	!LO:PB:g=original	!	!	!	!	!	!	!	!	!	!	!	!	!
4BB-/	.	.	.	4.b-\	Au-	.	8r	.	8r	.	4.b-\	.	00r	.	00r	.	4BB-/	.	00r	.	00r	.
.	.	.	.	.	.	.	8f\L	.	8B-/L 8d/	.	.	.	.	.	.	.	.	.	.	.	.	.
4r	.	.	.	.	.	.	8f\	.	8B-/ 8d/	.	.	.	.	.	.	.	4r	.	.	.	.	.
.	.	.	.	8b-\	-re	.	8f\J	.	8B-/J 8d/	.	8b-\	.	.	.	.	.	.	.	.	.	.	.
4BB-/	.	.	.	(>8dd\L	.	.	8r	.	8r	.	(>8dd\L	.	.	.	.	.	4B-\	.	.	.	.	.
*	*	*	*	*	*	*	*rep	*	*rep	*	*	*	*	*	*	*	*	*	*	*	*	*
.	.	.	.	8cc\	.	.	8f\L	.	8B-/L 8d/	.	8cc\	.	.	.	.	.	.	.	.	.	.	.
4r	.	.	.	8b-\	dul-	.	8f\	.	8B-/ 8d/	.	8b-\	.	.	.	.	.	4r	.	.	.	.	.
.	.	.	.	8a-X\J	.	.	8f\J	.	8B-/J 8d/	.	8a-X/J)	.	.	.	.	.	.	.	.	.	.	.
*	*	*	*	*	*	*	*Xrep	*	*Xrep	*	*	*	*	*	*	*	*	*	*	*	*	*
!	!	!	!	!	!	!	!LO:SIC:v=wykreślony jeden takt	!	!	!	!	!	!	!	!	!	!	!	!	!	!	!
=49	=49	=49	=49	=49	=49	=49	=49	=49	=49	=49	=49	=49	=49	=49	=49	=49	=49	=49	=49	=49	=49	=49
!	!	!	!	!	!	!LO:DY:a	!	!	!	!	!	!	!	!	!	!	!LO:PB:g=original	!	!	!	!	!
4E-\	.	.	.	8g\L	.	<	8r	.	8r	.	(<8g/L	.	.	.	.	.	8E-\L	.	.	.	.	.
.	.	.	.	8b-\J	.	.	8G\L 8e-\	.	8B-/L 8g/	.	8b-\J)	.	.	.	.	.	8e-\	.	.	.	.	.
4E-\	.	.	.	4ee-\)	-ce	[	8G/ 8e-/	.	8B-/ 8g/	.	4e-/	.	.	.	.	.	8B-\	.	.	.	.	.
.	.	.	.	.	.	.	8G/J 8e-/	.	8B-/J 8g/	.	.	.	.	.	.	.	8G\J	.	.	.	.	.
4E-\	.	.	.	4r	.	.	4G\ 4e-\	.	4B-/ 4g/	.	4r	.	.	.	.	.	4E-\	.	.	.	.	.
4r	.	.	.	(>8gg\L	can-	.	4r	.	4r	.	4e-/	.	.	.	.	.	4r	.	.	.	.	.
.	.	.	.	8ee-\J)	.	.	.	.	.	.	.	.	.	.	.	.	.	.	.	.	.	.
=50	=50	=50	=50	=50	=50	=50	=50	=50	=50	=50	=50	=50	=50	=50	=50	=50	=50	=50	=50	=50	=50	=50
!LO:SIC:o:v= 8 taktów dopisanych na dole głosu	!	!	!	!	!	!	!	!	!	!	!	!	!	!	!	!	!	!	!	!	!	!
4F\	.	00r	.	(>4.ff\	.	.	8r	.	0r	.	4.f/	.	.	.	.	.	4F\	.	.	.	.	.
.	.	.	.	.	.	.	8B-/L 8d/	.	.	.	.	.	.	.	.	.	.	.	.	.	.	.
4r	.	.	.	.	.	.	8B-/ 8d/	.	.	.	.	.	.	.	.	.	4r	.	.	.	.	.
.	.	.	.	8ff\	.	.	8B-/J 8d/	.	.	.	8f/	.	.	.	.	.	.	.	.	.	.	.
4FF/	.	.	.	8ff\L	.	.	8r	.	.	.	4f/	.	.	.	.	.	4F\	.	.	.	.	.
.	.	.	.	16gg\L	.	.	8f\L	.	.	.	.	.	.	.	.	.	.	.	.	.	.	.
.	.	.	.	16ff\JJ)	.	.	.	.	.	.	.	.	.	.	.	.	.	.	.	.	.	.
4r	.	.	.	8ee-\L	-ti-	.	8f\	.	.	.	8g/L	.	.	.	.	.	4r	.	.	.	.	.
.	.	.	.	8cc\J	.	.	8f\J	.	.	.	8an/J	.	.	.	.	.	.	.	.	.	.	.
=51	=51	=51	=51	=51	=51	=51	=51	=51	=51	=51	=51	=51	=51	=51	=51	=51	=51	=51	=51	=51	=51	=51
8BB-L/	.	.	.	4b-\	-cum	.	2B-/ 2d/	.	.	.	8b-\'L	.	.	.	.	.	8BB-L/	.	.	.	.	.
!LO:TX:t=P:mixed beam:problem	!	!	!	!	!	!	!	!	!	!	!	!	!	!	!	!LO:TX:t=P:mixed beam:problem	!	!	!	!	!	!
8B-\	.	.	.	.	.	.	.	.	.	.	8ff\'	.	.	.	.	.	8B-\	.	.	.	.	.
8F\	.	.	.	4r	.	.	.	.	.	.	8bb-\'	.	.	.	.	.	8F\	.	.	.	.	.
8DJ\	.	.	.	.	.	.	.	.	.	.	8ff\'J	.	.	.	.	.	8DJ\	.	.	.	.	.
4BB-/	.	.	.	4r	.	.	2r	.	.	.	(>8ddd\L	.	.	.	.	.	4BB-/	.	.	.	.	.
.	.	.	.	.	.	.	.	.	.	.	8bb-\	.	.	.	.	.	.	.	.	.	.	.
4r	.	.	.	(>8dd\L	In	.	.	.	.	.	8ff\	.	.	.	.	.	4r	.	.	.	.	.
.	.	.	.	8b-\J)	.	.	.	.	.	.	8dd\J)	.	.	.	.	.	.	.	.	.	.	.
=52	=52	=52	=52	=52	=52	=52	=52	=52	=52	=52	=52	=52	=52	=52	=52	=52	=52	=52	=52	=52	=52	=52
!	!	!	!	!	!	!	!LO:PB:g=original	!	!	!	!	!	!	!	!	!	!	!	!	!	!	!
4F\	.	.	.	4.f/	o-	.	8r	.	8r	.	4.f/	.	00r	.	00r	.	4F\	.	00r	.	00r	.
.	.	.	.	.	.	.	8f\L	.	8c/L 8e-/	.	.	.	.	.	.	.	.	.	.	.	.	.
4r	.	.	.	.	.	.	8f\	.	8c/ 8e-/	.	.	.	.	.	.	.	4r	.	.	.	.	.
.	.	.	.	8gg\	.	.	8f\J	.	8c/J 8e-/	.	8ee-\	.	.	.	.	.	.	.	.	.	.	.
4FF/	.	.	.	4ff\	.	.	8r	.	8r	.	4dd\	.	.	.	.	.	4F\	.	.	.	.	.
*	*	*	*	*	*	*	*rep	*	*rep	*	*	*	*	*	*	*	*	*	*	*	*	*
.	.	.	.	.	.	.	8f\L	.	8c/L 8e-/	.	.	.	.	.	.	.	.	.	.	.	.	.
4r	.	.	.	(>8ee-\L	-re	.	8f\	.	8c/ 8e-/	.	8ee-\'L	.	.	.	.	.	4r	.	.	.	.	.
.	.	.	.	8cc\J)	.	.	8f\J	.	8c/J 8e-/	.	8cc\'J	.	.	.	.	.	.	.	.	.	.	.
*	*	*	*	*	*	*	*Xrep	*	*Xrep	*	*	*	*	*	*	*	*	*	*	*	*	*
=53	=53	=53	=53	=53	=53	=53	=53	=53	=53	=53	=53	=53	=53	=53	=53	=53	=53	=53	=53	=53	=53	=53
!	!	!	!	!LO:PB:g=original	!	!	!	!	!	!LO:PB:g=original	!	!	!	!	!	!	!	!	!	!	!	!
8BB-L/	.	.	.	(>8cc\L	mel	.	8r	.	8r	.	(>8cc\L	.	.	.	.	.	8BB-L/	.	.	.	.	.
!LO:TX:t=P:mixed beam:problem	!	!	!	!	!	!	!	!	!	!	!	!	!	!	!	!LO:TX:t=P:mixed beam:problem	!	!	!	!	!	!
8B-\	.	.	.	8dd\J)	.	.	8f\L	.	8B-/L 8d/	.	8dd\J)	.	.	.	.	.	8B-\	.	.	.	.	.
8F\	.	.	.	4b-\	.	.	8f\	.	8B-/ 8d/	.	8b-'L\	.	.	.	.	.	8F\	.	.	.	.	.
!	!	!	!	!	!	!	!	!	!	!	!LO:TX:t=P:mixed beam:problem	!	!	!	!	!	!	!	!	!	!	!
8DJ\	.	.	.	.	.	.	8f\J	.	8B-/J 8d/	.	8B-'/	.	.	.	.	.	8DJ\	.	.	.	.	.
4BB-/	.	.	.	4r	.	.	4f\	.	4B-/ 4d/	.	8d'/	.	.	.	.	.	4BB-/	.	.	.	.	.
.	.	.	.	.	.	.	.	.	.	.	8f'J/	.	.	.	.	.	.	.	.	.	.	.
4r	.	.	.	(>8dd\L	mi-	.	4r	.	4r	.	(>8dd\L	.	.	.	.	.	4r	.	.	.	.	.
.	.	.	.	8b-\J)	.	.	.	.	.	.	8b-\J)	.	.	.	.	.	.	.	.	.	.	.
=54	=54	=54	=54	=54	=54	=54	=54	=54	=54	=54	=54	=54	=54	=54	=54	=54	=54	=54	=54	=54	=54	=54
!	!	!	!	!	!	!	!	!	!	!	!	!LO:HP:a	!	!	!	!	!	!	!	!	!	!
4F\	.	00r	.	(>4.f/	-ri-	.	8r	.	8r	.	4.f/	>	.	.	.	.	4F\	.	.	.	.	.
.	.	.	.	.	.	.	8f\L	.	8c/L 8e-/	.	.	.	.	.	.	.	.	.	.	.	.	.
4r	.	.	.	.	.	.	8f\	.	8c/ 8e-/	.	.	.	.	.	.	.	4r	.	.	.	.	.
.	.	.	.	8gg\	.	.	8f\J	.	8c/J 8e-/	.	8ee-\	.	.	.	.	.	.	.	.	.	.	.
4F\	.	.	.	4ff\)	.	.	8r	.	8r	.	4dd\	]	.	.	.	.	4FF/	.	.	.	.	.
*	*	*	*	*	*	*	*rep	*	*rep	*	*	*	*	*	*	*	*	*	*	*	*	*
.	.	.	.	.	.	.	8f\L	.	8c/L 8e-/	.	.	.	.	.	.	.	.	.	.	.	.	.
4r	.	.	.	(>8ee-\L	-fi-	.	8f\	.	8c/ 8e-/	.	8ee-\'L	.	.	.	.	.	4r	.	.	.	.	.
.	.	.	.	8cc\J)	.	.	8f\J	.	8c/J 8e-/	.	8cc\'J	.	.	.	.	.	.	.	.	.	.	.
*	*	*	*	*	*	*	*Xrep	*	*Xrep	*	*	*	*	*	*	*	*	*	*	*	*	*
=55	=55	=55	=55	=55	=55	=55	=55	=55	=55	=55	=55	=55	=55	=55	=55	=55	=55	=55	=55	=55	=55	=55
!	!	!	!	!	!	!	!	!	!	!	!	!LO:HP:a	!	!	!	!	!	!	!	!	!	!
4F\	.	.	.	(>4cc\	-cum	.	4f\	.	4c/ 4e-/	.	(>4cc\	>	.	.	.	.	4F\	.	.	.	.	.
4B-\	.	.	.	4dd\)	.	.	4f\	.	4B-/ 4d/	.	4dd\)	.	.	.	.	.	4B-\	.	.	.	.	.
4B-\	.	.	.	4r	.	.	4f\	.	4B-/ 4d/	.	4r	]	.	.	.	.	4B-\	.	.	.	.	.
4r	.	.	.	(<8fL/	In	.	4r	.	4r	.	4f/	.	.	.	.	.	4r	.	.	.	.	.
.	.	.	.	8b-\J)	.	.	.	.	.	.	.	.	.	.	.	.	.	.	.	.	.	.
=56	=56	=56	=56	=56	=56	=56	=56	=56	=56	=56	=56	=56	=56	=56	=56	=56	=56	=56	=56	=56	=56	=56
!	!	!	!	!	!	!	!	!	!LO:PB:g=original	!	!	!	!	!	!	!	!LO:PB:g=original	!	!	!	!	!
4B-\	.	.	.	4.b-\	cor-	.	8r	.	8r	.	4.b-\	.	00r	.	00r	.	4B-\	.	00r	.	00r	.
.	.	.	.	.	.	.	8f\L	.	8B-/L 8d/	.	.	.	.	.	.	.	.	.	.	.	.	.
4r	.	.	.	.	.	.	8f\	.	8B-/ 8d/	.	.	.	.	.	.	.	4r	.	.	.	.	.
.	.	.	.	(>8b-\	.	.	8f\J	.	8B-/J 8d/	.	8b-\	.	.	.	.	.	.	.	.	.	.	.
4B-\	.	.	.	8dd\L	.	.	8r	.	8r	.	(>8dd\L	.	.	.	.	.	4B-\	.	.	.	.	.
*	*	*	*	*	*	*	*rep	*	*rep	*	*	*	*	*	*	*	*	*	*	*	*	*
.	.	.	.	8cc\J	.	.	8f\L	.	8B-/L 8d/	.	8cc\	.	.	.	.	.	.	.	.	.	.	.
4r	.	.	.	8b-\L	-de	.	8f\	.	8B-/ 8d/	.	8b-\	.	.	.	.	.	4r	.	.	.	.	.
.	.	.	.	8a-X\J)	.	.	8f\J	.	8B-/J 8d/	.	8a-X/J)	.	.	.	.	.	.	.	.	.	.	.
*	*	*	*	*	*	*	*Xrep	*	*Xrep	*	*	*	*	*	*	*	*	*	*	*	*	*
=57	=57	=57	=57	=57	=57	=57	=57	=57	=57	=57	=57	=57	=57	=57	=57	=57	=57	=57	=57	=57	=57	=57
!	!	!	!	!	!	!LO:DY:a	!	!	!	!	!	!	!	!	!	!	!	!	!	!	!	!
4E-\	.	.	.	8g\L	nec-	<	8r	.	8r	.	(<8g/L	.	.	.	.	.	8E-\L	.	.	.	.	.
.	.	.	.	8b-\J	.	.	8G\L 8e-\	.	8B-/L 8g/	.	8b-\J)	.	.	.	.	.	8e-\	.	.	.	.	.
4E-\	.	.	.	4ee-\	-tar	.	8G/ 8e-/	.	8B-/ 8g/	.	4e-/	.	.	.	.	.	8B-\	.	.	.	.	.
.	.	.	.	.	.	.	8G/J 8e-/	.	8B-/J 8g/	.	.	.	.	.	.	.	8G\J	.	.	.	.	.
4E-\	.	.	.	4r	.	[	4G\ 4e-\	.	4B-/ 4g/	.	4r	.	.	.	.	.	4E-\	.	.	.	.	.
4r	.	.	.	(>8gg\L	cae-	.	4r	.	4r	.	4e-/	.	.	.	.	.	4r	.	.	.	.	.
.	.	.	.	8ee-\J)	.	.	.	.	.	.	.	.	.	.	.	.	.	.	.	.	.	.
=58	=58	=58	=58	=58	=58	=58	=58	=58	=58	=58	=58	=58	=58	=58	=58	=58	=58	=58	=58	=58	=58	=58
!	!	!	!	!LO:PB:g=original	!	!LO:PB:g=original	!	!	!	!	!	!	!	!	!	!	!	!	!	!	!	!
4BB-/	.	0r	.	(>4.ff\	.	.	8r	.	8r	.	4.f/	.	.	.	.	.	4B-\	.	.	.	.	.
.	.	.	.	.	.	.	8f\L	.	8B-/L 8d/	.	.	.	.	.	.	.	.	.	.	.	.	.
4r	.	.	.	.	.	.	8f\	.	8B-/ 8d/	.	.	.	.	.	.	.	4r	.	.	.	.	.
.	.	.	.	8ff\	.	.	8f\J	.	8B-/J 8d/	.	8f/	.	.	.	.	.	.	.	.	.	.	.
4FF/	.	.	.	8ff\L	.	.	8r	.	8r	.	4f/	.	.	.	.	.	4F\	.	.	.	.	.
*	*	*	*	*	*	*	*rep	*	*	*	*	*	*	*	*	*	*	*	*	*	*	*
.	.	.	.	16gg\L	.	.	8f\L	.	8c/L 8e-/	.	.	.	.	.	.	.	.	.	.	.	.	.
.	.	.	.	16ff\JJ)	.	.	.	.	.	.	.	.	.	.	.	.	.	.	.	.	.	.
4r	.	.	.	8ee-\L	-li-	.	8f\	.	8c/ 8e-/	.	8g/L	.	.	.	.	.	4r	.	.	.	.	.
.	.	.	.	8cc\J	.	.	8f\J	.	8c/J 8e-/	.	8a/J	.	.	.	.	.	.	.	.	.	.	.
*	*	*	*	*	*	*	*Xrep	*	*	*	*	*	*	*	*	*	*	*	*	*	*	*
=59	=59	=59	=59	=59	=59	=59	=59	=59	=59	=59	=59	=59	=59	=59	=59	=59	=59	=59	=59	=59	=59	=59
!	!	!	!	!	!	!	!	!	!	!	!LO:PB:g=original	!	!	!	!	!	!	!	!	!	!	!
!	!	!	!	!	!	!	!	!	!	!	!	!LO:DY:a	!	!	!	!	!	!	!	!	!	!
4BB-/	.	.	.	4b-\	-cum	.	4f\	.	4B-/ 4d/	.	4b-\	f	.	.	.	.	8BB-L/	.	.	.	.	.
!	!	!	!	!	!	!	!	!	!	!	!	!	!	!	!	!	!LO:TX:t=P:mixed beam:problem	!	!	!	!	!
.	.	.	.	.	.	.	.	.	.	.	.	.	.	.	.	.	8B-\	.	.	.	.	.
4BB-/	.	.	.	4r	.	.	16B-LL/	p	16B-/LL	.	16b-\LL	.	.	.	.	.	8F\	.	.	.	.	.
.	.	.	.	.	.	.	16c\	.	16c/	.	16cc\	.	.	.	.	.	.	.	.	.	.	.
.	.	.	.	.	.	.	16d\	.	16d/	.	16dd\	.	.	.	.	.	8DJ\	.	.	.	.	.
.	.	.	.	.	.	.	16c\JJ	.	16c/JJ	.	16cc\JJ	.	.	.	.	.	.	.	.	.	.	.
4BB-/	.	.	.	2r	.	.	4B-/	.	4B-/	.	8b-\L	.	.	.	.	.	4BB-/	.	.	.	.	.
.	.	.	.	.	.	.	.	.	.	.	8f/'	.	.	.	.	.	.	.	.	.	.	.
4r	.	.	.	.	.	.	4r	.	4r	.	8g/'	.	.	.	.	.	4r	.	.	.	.	.
.	.	.	.	.	.	.	.	.	.	p	8a/'J	.	.	.	.	.	.	.	.	.	.	.
=60	=60	=60	=60	=60	=60	=60	=60	=60	=60	=60	=60	=60	=60	=60	=60	=60	=60	=60	=60	=60	=60	=60
!	!	!LO:TX:a:i:t=Solo	!	!	!	!	!	!	!	!	!	!	!	!	!	!	!	!	!	!	!	!
*	*	*	*	*	*	*	*	*	*tremolo	*	*tremolo	*	*	*	*	*	*	*	*	*	*	*
4BB-/	.	2B-\	Mi	00r	.	.	8r	.	(<8B-/L	.	(<8d/L	p	8r	.	8r	.	8r	.	8r	.	8r	.
!	!	!	!	!	!	!	!	!LO:DY:a	!	!	!	!	!	!LO:DY:a	!	!LO:DY:a	!	!	!	!LO:DY:a	!	!LO:DY:a
.	.	.	.	.	.	.	8b-\L	p	8d/)	.	8f/)	.	8d/L	p	8b-\L	p	8BB-/L	p	8b-\L	p	8dd\L	p
4r	.	.	.	.	.	.	8b-\	.	(<8B-/	.	(<8d/	.	8d/	.	8b-\	.	8BB-/	.	8b-\	.	8dd\	.
.	.	.	.	.	.	.	8b-\J	.	8d/J)	.	8f/J)	.	8d/J	.	8b-\J	.	8BB-/J	.	8b-\J	.	8dd\J	.
*	*	*	*	*	*	*	*	*	*rep	*	*	*	*	*	*	*	*	*	*	*	*	*
4BB-/	.	8B-\	Je-	.	.	.	8r	.	(<8B-/L	.	(<8d/L	.	8r	.	8r	.	8r	.	8r	.	8r	.
.	.	(>16A\LL	.	.	.	.	8b-\L	.	8d/)	.	8f/)	.	8d/L	.	8b-\L	.	8BB-/L	.	8b-\L	.	8dd\L	.
.	.	16B-\JJ	.	.	.	.	.	.	.	.	.	.	.	.	.	.	.	.	.	.	.	.
4r	.	16c\LL	.	.	.	.	8b-\	.	(<8B-/	.	(<8d/	.	8d/	.	8b-\	.	8BB-/	.	8b-\	.	8dd\	.
.	.	16B-\	.	.	.	.	.	.	.	.	.	.	.	.	.	.	.	.	.	.	.	.
.	.	16A\	-su	.	.	.	8b-\J	.	8d/J)	.	8f/J)	.	8d/J	.	8b-\J	.	8BB-/J	.	8b-\J	.	8dd\J	.
.	.	16G/JJ)	.	.	.	.	.	.	.	.	.	.	.	.	.	.	.	.	.	.	.	.
*	*	*	*	*	*	*	*	*	*Xrep	*	*	*	*	*	*	*	*	*	*	*	*	*
=61	=61	=61	=61	=61	=61	=61	=61	=61	=61	=61	=61	=61	=61	=61	=61	=61	=61	=61	=61	=61	=61	=61
4B-\	.	(<8G/L	quan-	.	.	.	8r	.	(<8B-/L	???	(<8d/L	.	8r	.	8r	.	8r	.	8r	.	8r	.
.	.	8F/J)	.	.	.	.	8b-\L	.	8d/)	.	8f/)	.	8d/L	.	8b-\L	.	8BB-/L	.	8b-\L	.	8dd\L	.
4r	.	4F/	-do,	.	.	.	8b-\	.	(<8B-/	.	(<8d/	.	8d/	.	8b-\	.	8BB-/	.	8b-\	.	8dd\	.
.	.	.	.	.	.	.	8b-\J	.	8d/J)	.	8f/J)	.	8d/J	.	8b-\J	.	8BB-/J	.	8b-\J	.	8dd\J	.
*	*	*	*	*	*	*	*	*	*rep	*	*	*	*	*	*	*	*	*	*	*	*	*
4BB-/	.	8F/L	ve-	.	.	.	8r	.	(<8B-/L	.	(<8d/L	.	8r	.	8r	.	8r	.	8r	.	8r	.
*	*	*	*	*	*	*	*rep	*	*	*	*	*	*	*	*	*	*	*	*	*	*	*
.	.	(<16E-/L	.	.	.	.	8b-\L	.	8d/)	.	8f/)	.	8d/L	.	8b-\L	.	8BB-/L	.	8b-\L	.	8dd\L	.
.	.	16F/JJ	.	.	.	.	.	.	.	.	.	.	.	.	.	.	.	.	.	.	.	.
4r	.	16A\LL	.	.	.	.	8b-\	.	(<8B-/	.	(<8d/	.	8d/	.	8b-\	.	8BB-/	.	8b-\	.	8dd\	.
.	.	16G/	.	.	.	.	.	.	.	.	.	.	.	.	.	.	.	.	.	.	.	.
.	.	16F/)	-ni-	.	.	.	8b-\J	.	8d/J)	.	8f/J)	.	8d/J	.	8b-\J	.	8BB-/J	.	8b-\J	.	8dd\J	.
.	.	16E-/JJ	.	.	.	.	.	.	.	.	.	.	.	.	.	.	.	.	.	.	.	.
*	*	*	*	*	*	*	*Xrep	*	*Xrep	*	*	*	*	*	*	*	*	*	*	*	*	*
=62	=62	=62	=62	=62	=62	=62	=62	=62	=62	=62	=62	=62	=62	=62	=62	=62	=62	=62	=62	=62	=62	=62
!	!	!LO:PB:g=original	!	!	!	!	!	!LO:PB:g=original	!	!	!	!	!	!	!LO:PB:g=original	!	!LO:PB:g=original	!	!	!	!LO:PB:g=original	!
4B-\	.	(<8E-/L	-es	.	.	.	8r	.	(<8B-/L	.	(<8d/L	.	8r	.	8r	.	8r	.	8r	.	8r	.
.	.	8D/J)	.	.	.	.	8b-\L	.	8d/)	.	8f/)	.	8d/L	.	8b-\L	.	8BB-/L	.	8b-\L	.	8dd\L	.
4r	.	4D/	.	.	.	.	8b-\	.	(<8B-/	.	(<8d/	.	8d/	.	8b-\	.	8BB-/	.	8b-\	.	8dd\	.
.	.	.	.	.	.	.	8b-\J	.	8d/J)	.	8f/J)	.	8d/J	.	8b-\J	.	8BB-/J	.	8b-\J	.	8dd\J	.
*	*	*	*	*	*	*	*	*	*rep	*	*	*	*	*	*	*	*	*	*	*	*	*
4BB-/	.	8r	.	.	.	.	8r	.	(<8B-/L	.	(<8d/L	.	8r	.	8r	.	8r	.	8r	.	8r	.
*	*	*	*	*	*	*	*rep	*	*	*	*	*	*	*	*	*	*	*	*	*	*	*
.	.	8F/	me	.	.	.	8b-\L	.	8d/)	.	8f/)	.	8d/L	.	8b-\L	.	8BB-/L	.	8b-\L	.	8dd\L	.
4r	.	8B-/	lae-	.	.	.	8b-\	.	(<8B-/	.	(<8d/	.	8d/	.	8b-\	.	8BB-/	.	8b-\	.	8dd\	.
.	.	8d\	-tum	.	.	.	8b-\J	.	8d/J)	.	8f/J)	.	8d/J	.	8b-\J	.	8BB-/J	.	8b-\J	.	8dd\J	.
*	*	*	*	*	*	*	*Xrep	*	*Xrep	*	*	*	*	*	*	*	*	*	*	*	*	*
=63	=63	=63	=63	=63	=63	=63	=63	=63	=63	=63	=63	=63	=63	=63	=63	=63	=63	=63	=63	=63	=63	=63
!	!	!	!	!	!	!	!LO:PB:g=original	!	!	!	!	!	!	!	!	!	!	!	!	!	!	!
4F\	.	4.c\	quan-	.	.	.	8r	.	(<8c/L	.	(<8e-/L	.	8r	.	8r	.	8r	.	8r	.	8r	.
.	.	.	.	.	.	.	8f\L	.	8e-/)	.	8f/)	.	8f/L	.	8cc\L	.	8F\L	.	8a/L	.	8cc\L	.
4r	.	.	.	.	.	.	8f\	.	(<8c/	.	(<8e-/	.	8f/	.	8cc\	.	8F\	.	8a/	.	8cc\	.
.	.	8A\	-do	.	.	.	8f\J	.	8e-/J)	.	8f/J)	.	8f/J	.	8cc\J	.	8F\J	.	8a/J	.	8cc\J	.
*	*	*	*	*	*	*	*	*	*rep	*	*	*	*	*	*	*	*	*	*	*	*	*
4F\	.	4F/	fa-	.	.	.	8r	.	(<8c/L	.	(<8e-/L	.	8r	.	8r	.	8r	.	8r	.	8r	.
.	.	.	.	.	.	.	8f\L	.	8e-/)	.	8f/)	.	8f/L	.	8cc\L	.	8F\L	.	8a/L	.	8cc\L	.
4r	.	(<8G/L	-ci-	.	.	.	8f\	.	(<8c/	.	(<8e-/	.	8f/	.	8cc\	.	8F\	.	8a/	.	8cc\	.
.	.	8A\J)	.	.	.	.	8f\J	.	8e-/J)	.	8f/J)	.	8f/J	.	8cc\J	.	8F\J	.	8a/J	.	8cc\J	.
*	*	*	*	*	*	*	*	*	*Xrep	*	*	*	*	*	*	*	*	*	*	*	*	*
=64	=64	=64	=64	=64	=64	=64	=64	=64	=64	=64	=64	=64	=64	=64	=64	=64	=64	=64	=64	=64	=64	=64
4BB-/	.	4B-\	-es	0r	.	.	8r	.	(<8B-/L	.	(<8d/L	.	8r	.	8r	.	8r	.	8r	.	8r	.
.	.	.	.	.	.	.	8b-\L	.	8d/)	.	8f/)	.	8d/L	.	8b-\L	.	8BB-/L	.	8b-\L	.	8dd\L	.
4r	.	4r	.	.	.	.	8b-\	.	(<8B-/	.	(<8d/	.	8d/	.	8b-\	.	8BB-/	.	8b-\	.	8dd\	.
.	.	.	.	.	.	.	8b-\J	.	8d/J)	.	8f/J)	.	8d/J	.	8b-\J	.	8BB-/J	.	8b-\J	.	8dd\J	.
*	*	*	*	*	*	*	*	*	*rep	*	*	*	*	*	*	*	*	*	*	*	*	*
4BB-/	.	8r	.	.	.	.	8r	.	(<8B-/L	.	(<8d/L	.	8r	.	8r	.	8r	.	8r	.	8r	.
.	.	8F/L	Me	.	.	.	8b-\L	.	8d/)	.	8f/)	.	8d/L	.	8b-\L	.	8BB-/L	.	8b-\L	.	8dd\L	.
4r	.	8B-\J	de	.	.	.	8b-\	.	(<8B-/	.	(<8d/	.	8d/	.	8b-\	.	8BB-/	.	8b-\	.	8dd\	.
.	.	8d\	te	.	.	.	8b-\J	.	8d/J)	.	8f/J)	.	8d/J	.	8b-\J	.	8BB-/J	.	8b-\J	.	8dd\J	.
*	*	*	*	*	*	*	*	*	*Xrep	*	*	*	*	*	*	*	*	*	*	*	*	*
=65	=65	=65	=65	=65	=65	=65	=65	=65	=65	=65	=65	=65	=65	=65	=65	=65	=65	=65	=65	=65	=65	=65
!LO:PB:g=original	!	!	!	!	!	!	!	!	!	!	!	!	!LO:PB:g=original	!	!	!	!	!	!LO:PB:g=original	!	!	!
4F\	.	4.c\	quan-	.	.	.	8r	.	(<8c/L	.	(<8e-/L	.	8r	.	8r	.	8r	.	8r	.	8r	.
.	.	.	.	.	.	.	8f\L	.	8e-/)	.	8f/)	.	8f/L	.	8cc\L	.	8F\L	.	8a/L	.	8cc\L	.
4r	.	.	.	.	.	.	8f\	.	(<8c/	.	(<8e-/	.	8f/	.	8cc\	.	8F\	.	8a/	.	8cc\	.
.	.	8c\	-do	.	.	.	8f\J	.	8e-/J)	.	8f/J)	.	8f/J	.	8cc\J	.	8F\J	.	8a/J	.	8cc\J	.
!	!	!	!	!	!	!	!	!	!	!	!LO:PB:g=original	!	!	!	!	!	!	!	!	!	!	!
*	*	*	*	*	*	*	*	*	*rep	*	*	*	*	*	*	*	*	*	*	*	*	*
4F\	.	4.f\	sa-	.	.	.	8r	.	(<8c/L	.	(<8e-/L	.	8r	.	8r	.	8r	.	8r	.	8r	.
.	.	.	.	.	.	.	8f\L	.	8e-/)	.	8f/)	.	8f/L	.	8cc\L	.	8F\L	.	8a/L	.	8cc\L	.
4r	.	.	.	.	.	.	8f\	.	(<8c/	.	(<8e-/	.	8f/	.	8cc\	.	8F\	.	8a/	.	8cc\	.
.	.	8A\	-ti-	.	.	.	8f\J	.	8e-/J)	.	8f/J)	.	8f/J	.	8cc\J	.	8F\J	.	8a/J	.	8cc\J	.
*	*	*	*	*	*	*	*	*	*Xrep	*	*	*	*	*	*	*	*	*	*	*	*	*
=66	=66	=66	=66	=66	=66	=66	=66	=66	=66	=66	=66	=66	=66	=66	=66	=66	=66	=66	=66	=66	=66	=66
!	!LO:DY:a	!	!	!	!	!	!	!LO:DY:a	!	!	!	!LO:DY:a	!	!	!	!	!	!LO:DY:a	!	!LO:DY:a	!	!LO:DY:a
4BB-/	f	4B-\	-es	2r	.	.	8B-L/	f	8B-L/	.	8dL/	f	8r	.	8r	.	8BB-L/	f	8b-\L	f	8b-\L	f
!	!	!	!	!	!	!	!LO:TX:t=P:mixed beam:problem	!	!LO:TX:t=P:mixed beam:problem	!LO:DY:a	!LO:TX:t=P:mixed beam:problem	!LO:TX:t=P:mixed beam:problem	!	!	!LO:TX:a:i:t=forte	!LO:DY:a	!	!	!	!	!	!
!	!	!	!	!	!	!	!	!	!	!	!	!	!	!LO:DY:a	!	!	!	!	!	!	!	!
.	.	.	.	.	.	.	16b-L\	.	16b-L\	f	16ddL\	.	8d/L	f	8b-\L	f	8B-\	.	16b-\L	.	16dd\L	.
.	.	.	.	.	.	.	16b-JJ\	.	16b-JJ\	.	16ddJJ\	.	.	.	.	.	.	.	16b-\JJ	.	16dd\JJ	.
*	*	*	*	*	*	*	*	*	*Xtremolo	*	*Xtremolo	*	*	*	*	*	*	*	*	*	*	*
4B-\	.	4r	.	.	.	.	8b-\L	.	8b-\L	.	8dd\L	.	8d/	.	8b-\	.	8F\	.	8b-\L	.	8dd\	.
.	.	.	.	.	.	.	8b-\J	.	8b-\J	.	8dd\J	.	8d/J	.	8b-\J	.	8DJ\	.	8b-\J	.	8dd\	.
!	!	!	!	!LO:TX:a:i:t=Tut:	!	!	!	!	!	!	!	!	!	!	!	!	!	!	!	!	!	!
4BB-/	.	4r	.	4r	.	.	4b-\	.	4b-\	.	4dd\	.	4d/	.	4b-\	.	4BB-/	.	4b-\	.	4dd\	.
!	!	!LO:SIC:v=nieczytelny znak nad pięciolinią	!	!	!	!	!	!	!	!	!	!	!	!	!	!	!	!	!	!	!	!
4r	.	8c\	fa-	8ee-\	fa-	.	8f\L	.	8aL\	.	8cc\L	.	8f/L	.	8cc\L	.	4r	.	8a/L	.	8cc\L	.
.	.	8c\	-ci-	8ee-\	-ci-	.	8f\J	.	8a/J	.	8cc\J	.	8f/J	.	8cc\J	.	.	.	8a/J	.	8cc\J	.
=67	=67	=67	=67	=67	=67	=67	=67	=67	=67	=67	=67	=67	=67	=67	=67	=67	=67	=67	=67	=67	=67	=67
!	!	!LO:PB:g=original	!	!	!	!	!	!	!	!	!	!	!	!	!	!	!	!	!	!	!LO:PB:g=original	!
4BB-/	.	2B-\	-es,	2dd\	-es	.	4b-\	.	4b-\	.	4dd\	.	4b-\	.	4dd\	.	8BB-L/	.	4b-\	.	4dd\	.
!	!	!	!	!	!	!	!	!	!	!	!	!	!	!	!	!	!LO:TX:t=P:mixed beam:problem	!	!	!	!	!
.	.	.	.	.	.	.	.	.	.	.	.	.	.	.	.	.	8B-\	.	.	.	.	.
4B-\	.	.	.	.	.	.	4b-\	.	4b-\	.	4dd\	.	4b-\	.	4dd\	.	8F\	.	4b-\	.	4dd\	.
.	.	.	.	.	.	.	.	.	.	.	.	.	.	.	.	.	8DJ\	.	.	.	.	.
4BB-/	.	4r	.	4r	.	.	4r	.	4r	.	4r	.	4r	.	4r	.	4BB-/	.	4r	.	4r	.
4r	.	8A\	sa-	8cc\	sa-	.	8f\L	.	8a/L	.	8cc\L	.	8f/L	.	8cc\L	.	4r	.	8a/L	.	8cc\L	.
.	.	8A\	-ti-	8cc\	-ti-	.	8f\J	.	8a/J	.	8cc\J	.	8f/J	.	8cc\J	.	.	.	8a/J	.	8cc\J	.
=68	=68	=68	=68	=68	=68	=68	=68	=68	=68	=68	=68	=68	=68	=68	=68	=68	=68	=68	=68	=68	=68	=68
!	!	!	!	!	!	!	!LO:PB:g=original	!	!LO:PB:g=original	!	!LO:LB:g=original	!	!	!	!LO:PB:g=original	!	!LO:PB:g=original	!	!	!	!	!
4BB-/	.	4B-\	-es	4b-\	-es	.	4B-/	.	4d/	.	4b-\	.	4d/	.	4b-\	.	8BB-L/	.	4d/	.	4b-\	.
!	!	!	!	!	!	!	!	!	!	!	!	!	!	!	!	!	!LO:TX:t=P:mixed beam:problem	!	!	!	!	!
.	.	.	.	.	.	.	.	.	.	.	.	.	.	.	.	.	8B-\	.	.	.	.	.
4B-\	.	4r	.	4r	.	.	4B-/	.	4d/	.	4b-\	.	4d/	.	4b-\	.	8F\	.	4d/	.	4b-\	.
.	.	.	.	.	.	.	.	.	.	.	.	.	.	.	.	.	8DJ\	.	.	.	.	.
4BB-/	.	2r	.	2r	.	.	4r	.	4r	.	4r	.	4r	.	4r	.	4BB-/	.	4r	.	4r	.
!	!	!	!	!	!	!	!LO:TUP:b	!	!LO:TUP:b	!LO:DY:a	!LO:TUP:b	!	!	!LO:DY:a	!	!LO:DY:a	!	!	!LO:TX:a:i:t=forte	!LO:DY:a	!LO:TX:a:i:t=forte	!LO:DY:a
!	!	!	!	!	!	!	!	!	!	!	!	!	!	!	!	!	!	!	!LO:TUP:b	!	!LO:TUP:b	!
4r	.	.	.	.	.	.	(<12F/L	f	(<12f/'L	f	(<12f/L	.	4f/	f	4cc\	f	4r	.	(<12F/L	f	(<12f/L	f
!	!	!	!	!	!	!	!	!LO:DY:a	!	!	!	!LO:DY:a	!	!	!	!	!	!	!	!	!	!
.	.	.	.	.	.	.	12G/	???	12G/'	.	12g/	f	.	.	.	.	.	.	12G/	.	12g/	.
.	.	.	.	.	.	.	12A/J)	.	12A/J)	.	12a/J)	.	.	.	.	.	.	.	12A/J)	.	12a/J)	.
=69	=69	=69	=69	=69	=69	=69	=69	=69	=69	=69	=69	=69	=69	=69	=69	=69	=69	=69	=69	=69	=69	=69
!	!	!	!	!LO:PB:g=original	!	!	!	!	!	!	!	!	!	!	!	!	!	!	!	!	!	!
!	!LO:DY:a	!	!	!	!	!	!	!	!	!	!	!	!	!	!	!	!	!LO:DY:a	!	!	!	!
4.BB-/	f	1r	.	1r	.	.	8B-/L	.	4B-/	.	4b-\	.	4d/	.	4b-\	.	8B-\L	f	8B-/L	.	8b-L\	.
.	.	.	.	.	.	.	8F/	.	.	.	.	.	.	.	.	.	8F\	.	8F/	.	8f/	.
.	.	.	.	.	.	.	8G/	.	16r	.	16r	.	4f/	.	4cc\	.	8G\	.	8G/	.	8g/	.
.	.	.	.	.	.	.	.	.	16f/LL	.	16f/LL	.	.	.	.	.	.	.	.	.	.	.
8FF/	.	.	.	.	.	.	8A/J	.	16G/	.	16g/	.	.	.	.	.	8A\J	.	8A/J	.	8a/J	.
.	.	.	.	.	.	.	.	.	16A/JJ	.	16a/JJ	.	.	.	.	.	.	.	.	.	.	.
!	!	!LO:TX:a:t=2	!	!LO:TX:a:t=1	!	!	!	!	!	!	!	!	!	!	!	!	!	!	!	!	!	!
4.BB-/	.	.	.	.	.	.	8B-/L	.	4B-/	.	4b-\	.	4d/	.	4b-\	.	8B-\L	.	8B-/L	.	8b-L\	.
.	.	.	.	.	.	.	8F/	.	.	.	.	.	.	.	.	.	8F\	.	8F/	.	8f/	.
.	.	.	.	.	.	.	8G/	.	4B-/	.	16b-LL\	.	4f/	.	4cc\	.	8G\	.	8G/	.	8g/	.
!	!	!	!	!	!	!	!	!	!	!	!LO:TX:t=P:mixed beam:problem	!	!	!	!	!	!	!	!	!	!	!
.	.	.	.	.	.	.	.	.	.	.	16f/	.	.	.	.	.	.	.	.	.	.	.
8FF/	.	.	.	.	.	.	8A/J	.	.	.	16g/	.	.	.	.	.	8A\J	.	8A/J	.	8a/J	.
.	.	.	.	.	.	.	.	.	.	.	16aJJ/	.	.	.	.	.	.	.	.	.	.	.
=70	=70	=70	=70	=70	=70	=70	=70	=70	=70	=70	=70	=70	=70	=70	=70	=70	=70	=70	=70	=70	=70	=70
!	!	!	!	!	!	!	!	!	!	!	!	!	!	!	!	!	!	!	!LO:PB:g=original	!	!	!
8BB-L/	.	1r	.	2r	.	.	8B-L/	.	8B-/L	.	8b-L\	.	4d/	.	4b-\	.	8B-L\	.	4B-/	.	4b-\	.
!LO:TX:t=P:mixed beam:problem	!	!	!	!	!	!	!	!	!	!	!LO:TX:t=P:mixed beam:problem	!LO:TX:t=P:mixed beam:problem	!	!	!	!	!	!	!	!	!	!
8B-\	.	.	.	.	.	.	8B-/	.	8B-/	.	8B-/	.	.	.	.	.	8BB-/	.	.	.	.	.
8F\	.	.	.	.	.	.	8d\	.	8d/	.	8d/	.	4d/	.	4b-\	.	8D/	.	4B-/	.	8b-\L	.
8DJ\	.	.	.	.	.	.	8f\J	.	8f/J	.	8fJ/	.	.	.	.	.	8FJ/	.	.	.	8dd\J	.
4BB-/	.	.	.	4r	.	.	4B-/	.	4B-/	.	4b-\	.	4d/	.	4b-\	.	4B-\	.	4B-/	.	4b-\	.
4r	.	.	.	4f/	Je-	.	4r	.	4r	.	4f/	p	4r	.	4r	.	4r	.	4r	.	4r	.
=71	=71	=71	=71	=71	=71	=71	=71	=71	=71	=71	=71	=71	=71	=71	=71	=71	=71	=71	=71	=71	=71	=71
!LO:LB:g=original	!	!	!	!	!	!	!	!	!	!	!	!	!LO:PB:g=original	!	!	!	!LO:LB:g=original	!	!	!	!	!
*M3/8	*	*M3/8	*	*M3/8	*	*	*M3/8	*	*M3/8	*	*M3/8	*	*M3/8	*	*M3/8	*	*M3/8	*	*M3/8	*	*M3/8	*
!	!	!	!	!LO:SIC:v=Nieczytelny napis	!	!	!LO:TX:a:t=piccicato	!	!LO:TX:a:i:t=Andante	!	!	!	!	!	!	!	!	!	!	!	!	!
!LO:TX:a:i:t=Andante	!	!LO:N:vis=0	!	!LO:TX:a:i:t=Solo	!	!	!LO:TX:a:i:t=Andante	!	!	!	!LO:TX:a:i:t=Andante	!	!LO:TX:a:t=Andante	!	!LO:TX:a:i:t=Andante	!	!LO:TX:a:i:t=Andante	!	!LO:TX:a:i:t=Andante	!LO:DY:a	!LO:TX:a:i:t=Andante	!
!	!	!	!	!	!	!	!	!	!LO:N:vis=00	!	!	!	!LO:N:vis=00	!	!LO:N:vis=00	!	!	!	!	!	!	!
4.BB-/	p	2.r	.	8.f/	.	.	8B-/	.	1.r	.	(<8.f/L	???	1.r	.	1.r	.	8B-\	p	8d/	p	8b-\	p
.	.	.	.	.	.	.	8r	.	.	.	.	.	.	.	.	.	8r	.	8r	.	8r	.
!	!	!	!	!	!	!	!	!	!LO:TX:a:t=4.	!	!	!	!LO:TX:a:t=4	!	!LO:TX:a:t=4	!	!	!	!	!	!	!
.	.	.	.	16b-/	-sum	.	.	.	.	.	16b-\J)	.	.	.	.	.	.	.	.	.	.	.
.	.	.	.	8b-/	in	.	8r	.	.	.	8b-\	.	.	.	.	.	8r	.	8r	.	8r	.
=72	=72	=72	=72	=72	=72	=72	=72	=72	=72	=72	=72	=72	=72	=72	=72	=72	=72	=72	=72	=72	=72	=72
!	!	!	!	!	!	!	!	!	!	!	!LO:TX:a:i:t=piccicato	!	!	!	!	!	!	!	!	!	!	!
4.FF/	.	.	.	8a\	pa-	.	8f\	.	.	.	8r	.	.	.	.	.	8F\	.	8f/	.	8an/	.
.	.	.	.	8cc\	-ce,	.	8r	.	.	.	8f/L 8cc/	.	.	.	.	.	8r	.	8r	.	8r	.
.	.	.	.	8cc\	im-	.	8r	.	.	.	8f/J 8cc/	.	.	.	.	.	8r	.	8r	.	8r	.
=73	=73	=73	=73	=73	=73	=73	=73	=73	=73	=73	=73	=73	=73	=73	=73	=73	=73	=73	=73	=73	=73	=73
!	!	!	!	!	!	!	!	!	!	!	!	!	!	!	!	!	!	!	!	!	!LO:PB:g=original	!
4.FF/	.	4.r	.	(>8.fL\	-pe-	.	8f\	.	.	.	8r	.	.	.	.	.	8F\	.	8f/	.	8a/	.
.	.	.	.	.	.	.	8r	.	.	.	8f/L 8cc/	.	.	.	.	.	8r	.	8r	.	8r	.
!	!	!	!	!LO:TX:t=P:mixed beam:problem	!	!	!	!	!	!	!	!	!	!	!	!	!	!	!	!	!	!
.	.	.	.	16ffJk/	.	.	.	.	.	.	.	.	.	.	.	.	.	.	.	.	.	.
.	.	.	.	8ff\)	-ri-	.	8r	.	.	.	8f/J 8cc/	.	.	.	.	.	8r	.	8r	.	8r	.
=74	=74	=74	=74	=74	=74	=74	=74	=74	=74	=74	=74	=74	=74	=74	=74	=74	=74	=74	=74	=74	=74	=74
!	!	!	!	!	!	!	!	!	!	!	!LO:PB:g=original	!	!	!	!	!	!	!	!	!	!	!
8BB-/	.	8r	.	8dd\	-at	.	4B-/	.	.	.	4d/ 4b-/	.	.	.	.	.	8B-\	.	4d/	.	4b-\	.
8r	.	8r	.	8r	.	.	.	.	.	.	.	.	.	.	.	.	8r	.	.	.	.	.
!	!	!LO:TX:a:i:t=Solo	!	!	!	!	!	!	!	!	!	!	!	!	!	!	!	!	!	!	!	!
8r	.	8d\	Quem	8r	.	.	8r	.	.	.	8r	.	.	.	.	.	8r	.	8r	.	8r	.
=75	=75	=75	=75	=75	=75	=75	=75	=75	=75	=75	=75	=75	=75	=75	=75	=75	=75	=75	=75	=75	=75	=75
!LO:TX:a:i:t=piccicato	!	!	!	!LO:N:vis=0	!	!LO:PB:g=original	!	!	!	!	!LO:N:vis=00	!	!	!LO:DY:a	!	!LO:DY:a	!	!	!	!	!	!
!	!	!	!	!	!	!	!LO:N:vis=00	!	!	!	!	!	!	!	!	!	!LO:N:vis=00	!	!LO:N:vis=00	!	!LO:N:vis=00	!
8F\	.	(>8.e-\	om-	2.r	.	.	1.r	.	8r	.	1.r	.	8f/	p	8cc\	p	1.r	.	1.r	.	1.r	.
8r	.	.	.	.	.	.	.	.	8c/L 8e-/	.	.	.	8r	.	8r	.	.	.	.	.	.	.
!	!	!	!	!	!	!	!	!	!	!	!	!	!	!	!	!	!LO:TX:a:t=4.	!	!LO:TX:a:t=4.	!	!LO:TX:a:t=4.	!
.	.	16c\K)	.	.	.	.	.	.	.	.	.	.	.	.	.	.	.	.	.	.	.	.
8r	.	8c\	-nem	.	.	.	.	.	8c/J 8e-/	.	.	.	8r	.	8r	.	.	.	.	.	.	.
=76	=76	=76	=76	=76	=76	=76	=76	=76	=76	=76	=76	=76	=76	=76	=76	=76	=76	=76	=76	=76	=76	=76
!	!	!	!	!	!	!	!	!	!LO:TX:a:i:t=piccicato	!	!	!	!	!	!	!	!	!	!	!	!	!
8B-\	.	(>8.d\L	sen-	.	.	.	.	.	8r	.	.	.	8d/	.	8b-\	.	.	.	.	.	.	.
8r	.	.	.	.	.	.	.	.	8B-/L 8d/	.	.	.	8r	.	8r	.	.	.	.	.	.	.
.	.	16B-\Jk)	.	.	.	.	.	.	.	.	.	.	.	.	.	.	.	.	.	.	.	.
8r	.	8B-\	-sum	.	.	.	.	.	8B-/J 8d/	.	.	.	8r	.	8r	.	.	.	.	.	.	.
=77	=77	=77	=77	=77	=77	=77	=77	=77	=77	=77	=77	=77	=77	=77	=77	=77	=77	=77	=77	=77	=77	=77
8F\	.	(>8.c\L	su-	4.r	.	.	.	.	8r	.	.	.	8f/	.	8cc\	.	.	.	.	.	.	.
8r	.	.	.	.	.	.	.	.	8c/L 8e-/	.	.	.	8r	.	8r	.	.	.	.	.	.	.
.	.	16A\Jk)	.	.	.	.	.	.	.	.	.	.	.	.	.	.	.	.	.	.	.	.
8r	.	8F/	-pe-	.	.	.	.	.	8c/J 8e-/	.	.	.	8r	.	8r	.	.	.	.	.	.	.
=78	=78	=78	=78	=78	=78	=78	=78	=78	=78	=78	=78	=78	=78	=78	=78	=78	=78	=78	=78	=78	=78	=78
!	!	!LO:PB:g=original	!	!	!	!	!	!	!	!	!	!	!	!	!	!	!	!	!	!	!	!
8B-\	.	8B-\	-rat	8r	.	.	.	.	8B-/ 8d/	.	.	.	4d/	.	4b-\	.	.	.	.	.	.	.
8r	.	8r	.	8r	.	.	.	.	8r	.	.	.	.	.	.	.	.	.	.	.	.	.
8r	.	8r	.	8f/	Hanc	.	.	.	8r	.	.	.	8r	.	8r	.	.	.	.	.	.	.
=79	=79	=79	=79	=79	=79	=79	=79	=79	=79	=79	=79	=79	=79	=79	=79	=79	=79	=79	=79	=79	=79	=79
!LO:TX:a:i:t=Coll:	!	!LO:N:vis=0	!	!	!	!	!LO:TX:a:i:t=picc:	!	!LO:N:vis=00	!	!LO:TX:a:t=picci	!	!	!	!	!	!	!	!	!	!	!
!	!LO:DY:b	!	!	!	!	!	!	!	!	!	!	!	!LO:N:vis=00	!	!LO:N:vis=00	!	!	!	!	!	!	!
4.BB-/	p	2.r	.	(<8fL/	me-	.	8B-/	.	1.r	.	8r	.	1.r	.	1.r	.	8BB-/	.	8d/	.	8b-\	.
.	.	.	.	8b-\J)	.	.	8r	.	.	.	8d/L 8b-/	.	.	.	.	.	8r	.	8r	.	8r	.
!	!	!LO:TX:a:t=2	!	!	!	!	!	!	!LO:TX:a:t=4	!	!	!	!LO:TX:a:t=4	!	!	!	!	!	!	!	!	!
.	.	.	.	8b-\	-a	.	8r	.	.	.	8d/J 8b-/	.	.	.	.	.	8r	.	8r	.	8r	.
=80	=80	=80	=80	=80	=80	=80	=80	=80	=80	=80	=80	=80	=80	=80	=80	=80	=80	=80	=80	=80	=80	=80
4.FF/	.	.	.	(>8a\L	mens	.	8f\	.	.	.	8r	.	.	.	.	.	8F\	.	8f/	.	8an/	.
.	.	.	.	8cc\J)	.	.	8r	.	.	.	8d/L 8f/ 8cc/	.	.	.	.	.	8r	.	8r	.	8r	.
.	.	.	.	8cc\	de-	.	8r	.	.	.	8d/J 8f/ 8cc/	.	.	.	.	.	8r	.	8r	.	8r	.
=81	=81	=81	=81	=81	=81	=81	=81	=81	=81	=81	=81	=81	=81	=81	=81	=81	=81	=81	=81	=81	=81	=81
4.FF/	.	4.r	.	(>8.fL/	-si-	.	8f\	.	.	.	8r	.	.	.	.	.	8F\	.	8f/	.	8an/	.
.	.	.	.	.	.	.	8r	.	.	.	8f/L 8cc/	.	.	.	.	.	8r	.	8r	.	8r	.
!	!	!	!	!LO:TX:t=P:mixed beam:problem	!	!	!	!	!	!	!	!	!	!	!	!	!	!	!	!	!	!
.	.	.	.	16ffJk\)	.	.	.	.	.	.	.	.	.	.	.	.	.	.	.	.	.	.
.	.	.	.	8ff\	-de-	.	8r	.	.	.	8f/J 8cc/	.	.	.	.	.	8r	.	8r	.	8r	.
=82	=82	=82	=82	=82	=82	=82	=82	=82	=82	=82	=82	=82	=82	=82	=82	=82	=82	=82	=82	=82	=82	=82
8BB-/	.	8r	.	8dd\	-rat	.	4B-/	.	.	.	4d/ 4b-/	.	.	.	.	.	8B-\	.	4d/	.	4b-\	.
8r	.	8r	.	8r	.	.	.	.	.	.	.	.	.	.	.	.	8r	.	.	.	.	.
8r	.	8d\	Et	8r	.	.	8r	.	.	.	8r	.	.	.	.	.	8r	.	8r	.	8r	.
=83	=83	=83	=83	=83	=83	=83	=83	=83	=83	=83	=83	=83	=83	=83	=83	=83	=83	=83	=83	=83	=83	=83
!LO:PB:g=original	!	!	!	!	!	!	!	!	!	!	!	!	!	!	!LO:PB:g=original	!	!	!	!LO:PB:g=original	!	!	!
!LO:TX:a:i:t=picci:	!	!	!	!LO:N:vis=00	!	!LO:N:vis=00	!	!	!	!	!	!	!	!	!	!	!LO:N:vis=00	!	!LO:N:vis=00	!	!LO:N:vis=00	!
8F\	.	(>8.e-\L	e-	1.r	.	.	1.r	.	8r	.	4.r	.	8f/	.	8cc\	.	1.r	.	1.r	.	1.r	.
8r	.	.	.	.	.	.	.	.	8c/L 8e-/	.	.	.	8r	.	8r	.	.	.	.	.	.	.
!	!	!	!	!	!	!	!	!	!	!	!	!	!	!	!	!	!LO:TX:a:t=4.	!	!LO:TX:a:t=4	!	!LO:TX:a:t=4.	!
.	.	16c\Jk)	.	.	.	.	.	.	.	.	.	.	.	.	.	.	.	.	.	.	.	.
8r	.	8c\	-a	.	.	.	.	.	8c/J 8e-/	.	.	.	8r	.	8r	.	.	.	.	.	.	.
=84	=84	=84	=84	=84	=84	=84	=84	=84	=84	=84	=84	=84	=84	=84	=84	=84	=84	=84	=84	=84	=84	=84
8B-\	.	(>8.d\L	fru-	.	.	.	.	.	8r	.	4.r	.	8d/	.	8b-\	.	.	.	.	.	.	.
8r	.	.	.	.	.	.	.	.	8B-/L 8d/	.	.	.	8r	.	8r	.	.	.	.	.	.	.
.	.	16B-\Jk)	.	.	.	.	.	.	.	.	.	.	.	.	.	.	.	.	.	.	.	.
8r	.	8B-\	-i	.	.	.	.	.	8B-/J 8d/	.	.	.	8r	.	8r	.	.	.	.	.	.	.
=85	=85	=85	=85	=85	=85	=85	=85	=85	=85	=85	=85	=85	=85	=85	=85	=85	=85	=85	=85	=85	=85	=85
8F\	.	(>8.c\L	pro-	.	.	.	.	.	8r	.	4.r	.	8f/	.	8cc\	.	.	.	.	.	.	.
8r	.	.	.	.	.	.	.	.	8c/L 8e-/	.	.	.	8r	.	8r	.	.	.	.	.	.	.
.	.	16A\Jk)	.	.	.	.	.	.	.	.	.	.	.	.	.	.	.	.	.	.	.	.
8r	.	8F/	-pe-	.	.	.	.	.	8c/J 8e-/	.	.	.	8r	.	8r	.	.	.	.	.	.	.
=86	=86	=86	=86	=86	=86	=86	=86	=86	=86	=86	=86	=86	=86	=86	=86	=86	=86	=86	=86	=86	=86	=86
4B-\	.	8B-\	-rat	.	.	.	.	.	8B-/ 8d/	.	4.r	.	4d/	.	4b-\	.	.	.	.	.	.	.
.	.	8r	.	.	.	.	.	.	8r	.	.	.	.	.	.	.	.	.	.	.	.	.
8r	.	8r	.	.	.	.	.	.	8r	.	.	.	8r	.	8r	.	.	.	.	.	.	.
=87	=87	=87	=87	=87	=87	=87	=87	=87	=87	=87	=87	=87	=87	=87	=87	=87	=87	=87	=87	=87	=87	=87
!	!	!	!	!	!	!	!LO:LB:g=original	!	!LO:PB:g=original	!	!	!	!	!	!	!	!	!	!	!	!	!
!LO:TX:a:i:t=Collar	!	!LO:N:vis=0	!	!	!	!	!LO:TX:a:i:t=Collar	!	!LO:TX:a:i:t=Coll:	!	!LO:TX:a:i:t=Collar:	!	!	!LO:DY:a	!	!LO:DY:a	!	!	!	!LO:DY:a	!	!LO:DY:a
8F\L	.	2.r	.	8ee-\	Je-	.	8f\L	.	8cc\L	.	8ee-\L	???	8f/L	p	8cc\L	p	4F\	.	8cc\L	???	8ee-\L	p
8F\	.	.	.	8cc\	-sum	.	8f\	.	8cc\	.	8ee-\	.	8f/	.	8cc\	.	.	.	8cc\	.	8ee-\	.
8F\J	.	.	.	8cc\	ad	.	8f\J	.	8cc\J	.	8ee-\J	.	8f/J	.	8cc\J	.	8F\	.	8cc\J	.	8ee-\J	.
=88	=88	=88	=88	=88	=88	=88	=88	=88	=88	=88	=88	=88	=88	=88	=88	=88	=88	=88	=88	=88	=88	=88
!	!	!	!	!	!	!	!	!	!	!	!	!	!LO:PB:g=original	!	!	!	!	!	!	!	!	!
8F\L	.	.	.	(>8cc\L	Pa-	.	8f\L	.	8cc\L	.	8ee-\L	.	8f/L	.	8cc\L	.	4F\	.	8cc\L	.	8ee-\L	.
8F\	.	.	.	8a\J)	.	.	8f\	.	8cc\	.	8ee-\	.	8f/	.	8cc\	.	.	.	8cc\	.	8ee-\	.
8F\J	.	.	.	8f/	-trem	.	8f\J	.	8cc\J	.	8ee-\J	.	8f/J	.	8cc\J	.	8F\	.	8cc\J	.	8ee-\J	.
=89	=89	=89	=89	=89	=89	=89	=89	=89	=89	=89	=89	=89	=89	=89	=89	=89	=89	=89	=89	=89	=89	=89
8BB-/L	.	4.r	.	(>8ff\L	re-	.	8B-/L	.	8b-\L	.	8dd\L	.	8d/L	.	8b-\L	.	8F\L	.	8b-\L	.	8dd\L	.
8BB-/	.	.	.	8dd\J)	.	.	8B-/	.	8b-\	.	8dd\	.	8d/	.	8b-\	.	8F\	.	8b-\	.	8dd\	.
8BB-/J	.	.	.	8dd\	-di-	.	8B-/J	.	8b-\J	.	8dd\J	.	8d/J	.	8b-\J	.	8F\J	.	8b-\J	.	8dd\J	.
=90	=90	=90	=90	=90	=90	=90	=90	=90	=90	=90	=90	=90	=90	=90	=90	=90	=90	=90	=90	=90	=90	=90
!	!	!	!	!LO:PB:g=original	!	!	!	!	!	!	!	!	!	!	!	!	!	!	!	!	!LO:PB:g=original	!
8BB-/	.	8r	.	8dd\	-it	.	4B-/	.	4b-\	.	4dd\	.	4d/	.	4b-\	.	8F\	.	4b-\	.	4dd\	.
8r	.	8r	.	8r	.	.	.	.	.	.	.	.	.	.	.	.	8r	.	.	.	.	.
8r	.	8B-\	Cae-	8r	.	.	8r	.	8r	.	8r	.	8r	.	8r	.	8r	.	8r	.	8r	.
=91	=91	=91	=91	=91	=91	=91	=91	=91	=91	=91	=91	=91	=91	=91	=91	=91	=91	=91	=91	=91	=91	=91
!	!	!LO:PB:g=original	!	!	!	!	!	!	!	!	!LO:PB:g=original	!	!	!	!	!	!	!	!	!	!	!
!	!LO:DY:a	!	!	!LO:N:vis=00	!	!	!	!LO:DY:a	!	!	!LO:TX:t=P:p zapisane piano:problem	!	!	!	!	!	!	!	!	!LO:DY:a	!	!
4C/	p	8G/	-le-	1.r	.	.	4c\	p	8g/L 8b-/	.	8g/L	p	4b-\	.	4cc\	.	4C/	.	4b-\	p	4cc\	.
.	.	8G/	-sti	.	.	.	.	.	8g/ 8b-/	.	8g/	.	.	.	.	.	.	.	.	.	.	.
8r	.	8c\	Re-	.	.	.	8c\	.	8g/J 8b-/	.	8cc\J	.	8b-\	.	8cc\	.	8C/	.	8b-\	.	8cc\	.
=92	=92	=92	=92	=92	=92	=92	=92	=92	=92	=92	=92	=92	=92	=92	=92	=92	=92	=92	=92	=92	=92	=92
4FF/	.	(<8A\L	-gnum	.	.	.	4f\	.	8f/L 8a/	.	8a/L	.	4f/	.	4cc\	.	4F\	.	4a/	.	4cc\	.
.	.	8F/J)	.	.	.	.	.	.	8f/ 8a/	.	8f/	.	.	.	.	.	.	.	.	.	.	.
8r	.	(<16F/LL	su-	.	.	.	8f\	.	8f/J 8a/	.	8c/J	.	8f/	.	8cc\	.	8F\	.	8a/	.	8cc\	.
.	.	16A\JJ)	.	.	.	.	.	.	.	.	.	.	.	.	.	.	.	.	.	.	.	.
=93	=93	=93	=93	=93	=93	=93	=93	=93	=93	=93	=93	=93	=93	=93	=93	=93	=93	=93	=93	=93	=93	=93
4C/	.	(>8c\	.	.	.	.	4c\	.	8g/L 8b-/	.	(<8c/L	.	4b-\	.	4cc\	.	4C/	.	4b-\	.	4cc\	.
.	.	16c\LL	.	.	.	.	.	.	8g/ 8b-/	.	8d/	.	.	.	.	.	.	.	.	.	.	.
.	.	16A\	.	.	.	.	.	.	.	.	.	.	.	.	.	.	.	.	.	.	.	.
8r	.	16B-\)	-bi-	.	.	.	8c\	.	8g/J 8b-/	.	8en/J)	.	8b-\	.	8cc\	.	8C/	.	8b-\	.	8cc\	.
.	.	16G/JJ	.	.	.	.	.	.	.	.	.	.	.	.	.	.	.	.	.	.	.	.
=94	=94	=94	=94	=94	=94	=94	=94	=94	=94	=94	=94	=94	=94	=94	=94	=94	=94	=94	=94	=94	=94	=94
!LO:PB:g=original	!	!	!	!	!	!	!	!	!	!	!	!	!	!	!LO:PB:g=original	!	!	!	!	!	!	!
4F\	.	8.F/	-it,	.	.	.	4f\	.	8f/L 8a/	.	8f/L	.	4f/	.	4cc\	.	4F\	.	4a/	.	4cc\	.
.	.	.	.	.	.	.	.	.	8f/ 8a/	.	8A/'	.	.	.	.	.	.	.	.	.	.	.
.	.	16r	.	.	.	.	.	.	.	.	.	.	.	.	.	.	.	.	.	.	.	.
8r	.	(<16F/LL	re-	.	.	.	8f\	.	8f/J 8a/	.	8c/'J	.	8f/	.	8cc\	.	8F\	.	8a/	.	8cc\	.
.	.	16A\JJ)	.	.	.	.	.	.	.	.	.	.	.	.	.	.	.	.	.	.	.	.
=95	=95	=95	=95	=95	=95	=95	=95	=95	=95	=95	=95	=95	=95	=95	=95	=95	=95	=95	=95	=95	=95	=95
!	!	!	!	!LO:N:vis=0	!	!	!	!	!	!	!	!	!	!	!	!	!	!	!	!	!	!
4C/	.	(>8c\	.	2.r	.	.	4c\	.	8g/L 8b-/	.	(<8c/L	.	4b-\	.	4cc\	.	4C/	.	4b-\	.	4cc\	.
.	.	16c\LL	.	.	.	.	.	.	8g/ 8b-/	.	8d/	.	.	.	.	.	.	.	.	.	.	.
.	.	16A\	.	.	.	.	.	.	.	.	.	.	.	.	.	.	.	.	.	.	.	.
8r	.	16B-\	-di-	.	.	.	8c\	.	8g/J 8b-/	.	8e-/J)	.	8b-\	.	8cc\	.	8C/	.	8b-\	.	8cc\	.
.	.	16G/JJ)	.	.	.	.	.	.	.	.	.	.	.	.	.	.	.	.	.	.	.	.
=96	=96	=96	=96	=96	=96	=96	=96	=96	=96	=96	=96	=96	=96	=96	=96	=96	=96	=96	=96	=96	=96	=96
4FF/	.	8.F/	-it	.	.	.	4f\	.	8f/L 8a/	.	8f/L	.	4f/	.	4cc\	.	4F\	.	4a/	.	4cc\	.
.	.	.	.	.	.	.	.	.	8f/ 8a/	.	8A/'	.	.	.	.	.	.	.	.	.	.	.
.	.	16r	.	.	.	.	.	.	.	.	.	.	.	.	.	.	.	.	.	.	.	.
8r	.	(<16F/LL	su-	.	.	.	8f\	.	8f/J 8a/	.	8c/'J	.	8f/	.	8cc\	.	8F\	.	8a/	.	8cc\	.
.	.	16A\JJ)	.	.	.	.	.	.	.	.	.	.	.	.	.	.	.	.	.	.	.	.
=97	=97	=97	=97	=97	=97	=97	=97	=97	=97	=97	=97	=97	=97	=97	=97	=97	=97	=97	=97	=97	=97	=97
!	!	!	!	!	!	!	!LO:PB:g=original	!	!LO:PB:g=original	!	!	!	!	!	!	!	!	!	!	!	!	!
4C/	.	(>8c\	.	4.r	.	.	4c\	.	8g/L 8b-/	.	(<8c/L	.	4b-\	.	4cc\	.	4C/	.	4b-\	.	4cc\	.
.	.	16c\LL	.	.	.	.	.	.	8g/ 8b-/	.	8d/	.	.	.	.	.	.	.	.	.	.	.
.	.	16A\	.	.	.	.	.	.	.	.	.	.	.	.	.	.	.	.	.	.	.	.
8r	.	16B-\)	-bi-	.	.	.	8c\	.	8g/J 8b-/	.	8e-/J)	.	8b-\	.	8cc\	.	8C/	.	8b-\	.	8cc\	.
.	.	16G/JJ	.	.	.	.	.	.	.	.	.	.	.	.	.	.	.	.	.	.	.	.
=98	=98	=98	=98	=98	=98	=98	=98	=98	=98	=98	=98	=98	=98	=98	=98	=98	=98	=98	=98	=98	=98	=98
!	!	!LO:PB:g=original	!	!	!	!	!	!	!	!	!	!	!	!	!	!	!LO:PB:g=original	!	!	!	!	!
4F\;	.	8F;\	-it.	8r;	.	.	4f\;	.	4f/;< 4a/	.	4f/;<	.	4f/;<	.	4cc\;	.	4F\;	.	4a/;	.	4cc\;	.
.	.	8r	.	8r	.	.	.	.	.	.	.	.	.	.	.	.	.	.	.	.	.	.
8r	.	8r	.	8f/	Cor-	.	8r	.	8r	.	8f/	.	8r	.	8r	.	8r	.	8r	.	8r	.
=99	=99	=99	=99	=99	=99	=99	=99	=99	=99	=99	=99	=99	=99	=99	=99	=99	=99	=99	=99	=99	=99	=99
!LO:N:vis=00	!	!LO:N:vis=0	!	!	!	!	!LO:TX:a:i:t=piccicato	!	!LO:N:vis=00	!	!LO:TX:a:i:t=picci	!	!LO:N:vis=00	!	!LO:N:vis=00	!	!	!LO:PB:g=original	!	!	!	!
1.r	.	2.r	.	(<8fL/	-me-	.	8B-/	.	1.r	.	8r	.	1.r	.	1.r	.	8B-\	.	8d/	.	8b-\	.
.	.	.	.	8b-\J)	.	.	8r	.	.	.	8d/L 8b-/	.	.	.	.	.	8r	.	8r	.	8r	.
!LO:TX:t=4.	!	!LO:TX:a:t=3	!	!	!	!	!	!	!LO:TX:a:t=4.	!	!	!	!LO:TX:a:t=4	!	!	!	!	!	!	!	!	!
.	.	.	.	8b-\	-um	.	8r	.	.	.	8d/J 8b-/	.	.	.	.	.	8r	.	8r	.	8r	.
=100	=100	=100	=100	=100	=100	=100	=100	=100	=100	=100	=100	=100	=100	=100	=100	=100	=100	=100	=100	=100	=100	=100
!	!	!	!	!	!	!	!	!	!	!	!LO:PB:g=original	!	!	!	!	!	!	!	!	!	!LO:PB:g=original	!
.	.	.	.	(>8a\L	me-	.	8f\	.	.	.	8r	.	.	.	.	.	8F\	.	8f/	.	8a/	.
.	.	.	.	8cc\J)	.	.	8r	.	.	.	8f/L 8cc/	.	.	.	.	.	8r	.	8r	.	8r	.
.	.	.	.	8cc\	-a	.	8r	.	.	.	8f/J 8cc/	.	.	.	.	.	8r	.	8r	.	8r	.
=101	=101	=101	=101	=101	=101	=101	=101	=101	=101	=101	=101	=101	=101	=101	=101	=101	=101	=101	=101	=101	=101	=101
.	.	4.r	.	(>8fL/	tran-	.	8f\	.	.	.	8r	.	.	.	.	.	8F\	.	8f/	.	8a/	.
!	!	!	!	!LO:TX:t=P:mixed beam:problem	!	!	!	!	!	!	!	!	!	!	!	!	!	!	!	!	!	!
.	.	.	.	8ffJ\)	.	.	8r	.	.	.	8f/L 8cc/	.	.	.	.	.	8r	.	8r	.	8r	.
.	.	.	.	8ff\	-si-	.	8r	.	.	.	8f/J 8cc/	.	.	.	.	.	8r	.	8r	.	8r	.
=102	=102	=102	=102	=102	=102	=102	=102	=102	=102	=102	=102	=102	=102	=102	=102	=102	=102	=102	=102	=102	=102	=102
.	.	8r	.	8dd\	-it	.	4B-/	.	.	.	4d/ 4b-/	.	.	.	.	.	8B-\	.	4d/	.	8b-\	.
.	.	8r	.	8r	.	.	.	.	.	.	.	.	.	.	.	.	8r	.	.	.	8r	.
.	.	8d\	Post	8r	.	.	8r	.	.	.	8r	.	.	.	.	.	8r	.	8r	.	8r	.
=103	=103	=103	=103	=103	=103	=103	=103	=103	=103	=103	=103	=103	=103	=103	=103	=103	=103	=103	=103	=103	=103	=103
!LO:TX:a:i:t=picci:	!	!	!	!LO:N:vis=0	!	!LO:N:vis=0	!	!	!LO:TX:a:i:t=picci:	!	!LO:N:vis=0	!	!LO:PB:g=original	!	!	!LO:DY:a	!LO:N:vis:0	!	!LO:N:vis:0	!	!LO:N:vis=0	!
8F\	.	(>8.e-\L	Je-	2.r	.	.	2.r	.	8r	.	2.r	.	8f/	.	8cc\	p	2.r	.	2.r	.	2.r	.
8r	.	.	.	.	.	.	.	.	8c/L 8e-/	.	.	.	8r	.	8r	.	.	.	.	.	.	.
!	!	!	!	!	!	!	!LO:TX:a:t=3	!	!	!	!	!	!	!	!	!	!LO:TX:a:t=3	!	!LO:TX:a:t=3.	!	!LO:TX:a:t=3.	!
.	.	16c\Jk)	.	.	.	.	.	.	.	.	.	.	.	.	.	.	.	.	.	.	.	.
8r	.	8c\	-sum	.	.	.	.	.	8c/J 8e-/	.	.	.	8r	.	8r	.	.	.	.	.	.	.
=104	=104	=104	=104	=104	=104	=104	=104	=104	=104	=104	=104	=104	=104	=104	=104	=104	=104	=104	=104	=104	=104	=104
8BB-/	.	(>8.d\L	si-	.	.	.	.	.	8r	.	.	.	8d/	.	8b-\	.	.	.	.	.	.	.
8r	.	.	.	.	.	.	.	.	8B-/L 8d/	.	.	.	8r	.	8r	.	.	.	.	.	.	.
.	.	16B-\Jk)	.	.	.	.	.	.	.	.	.	.	.	.	.	.	.	.	.	.	.	.
8r	.	8B-\	-mul	.	.	.	.	.	8B-/J 8d/	.	.	.	8r	.	8r	.	.	.	.	.	.	.
=105	=105	=105	=105	=105	=105	=105	=105	=105	=105	=105	=105	=105	=105	=105	=105	=105	=105	=105	=105	=105	=105	=105
8F\	.	(>8.c\L	a-	4.r	.	.	4.r	.	8r	.	4.r	.	8f/	.	8cc\	.	4.r	.	4.r	.	4.r	.
8r	.	.	.	.	.	.	.	.	8c/L 8e-/	.	.	.	8r	.	8r	.	.	.	.	.	.	.
.	.	16A\Jk)	.	.	.	.	.	.	.	.	.	.	.	.	.	.	.	.	.	.	.	.
8r	.	8F/	-bi-	.	.	.	.	.	8c/J 8e-/	.	.	.	8r	.	8r	.	.	.	.	.	.	.
=106	=106	=106	=106	=106	=106	=106	=106	=106	=106	=106	=106	=106	=106	=106	=106	=106	=106	=106	=106	=106	=106	=106
!	!	!	!	!LO:LB:g=original	!	!	!	!	!	!	!	!	!	!	!	!	!	!	!LO:LB:g=original	!	!	!
!	!	!	!	!	!	!	!LO:TX:a:i:t=picci	!	!	!	!LO:TX:a:i:t=pic.	!	!	!	!	!	!	!	!	!	!	!
8B-\	.	8B-\	-it,	8r	.	.	8B-/	.	8r	.	8r	.	8d/	.	8b-\	.	8B-\	.	8d/	.	8b-\	.
8r	.	(>8d\L	Post	8r	.	.	8r	.	8B-/L 8d/	.	8d/L 8b-/	.	8r	.	8r	.	8r	.	8r	.	8r	.
8r	.	8f\J)	.	8dd\	Post	.	8r	.	8B-/J 8d/	.	8d/J 8b-/	.	8r	.	8r	.	8r	.	8r	.	8r	.
=107	=107	=107	=107	=107	=107	=107	=107	=107	=107	=107	=107	=107	=107	=107	=107	=107	=107	=107	=107	=107	=107	=107
8F\	.	(>8.c\L	Je-	(>8.ee-\L	Je-	.	8f\	.	8r	.	8r	.	8f/	.	8cc\	.	8F\	.	8f/	.	8a/	.
8r	.	.	.	.	.	.	8r	.	8c/L 8e-/	.	8f/L 8cc/	.	8r	.	8r	.	8r	.	8r	.	8r	.
.	.	16A\Jk)	.	16cc\Jk)	.	.	.	.	.	.	.	.	.	.	.	.	.	.	.	.	.	.
8r	.	8A\	-sum	8cc\	-sum	.	8r	.	8c/J 8e-/	.	8f/J 8cc/	.	8r	.	8r	.	8r	.	8r	.	8r	.
=108	=108	=108	=108	=108	=108	=108	=108	=108	=108	=108	=108	=108	=108	=108	=108	=108	=108	=108	=108	=108	=108	=108
!	!	!	!	!	!	!	!	!	!	!	!	!	!	!	!LO:PB:g=original	!	!	!	!	!	!	!
8BB-/	.	(<8.B-\L	si-	(>8.dd\	si-	.	8B-/	.	8r	.	8r	.	8d/	.	8b-\	.	8B-\	.	8d/	.	8b-\	.
8r	.	.	.	.	.	.	8r	.	8B-/L 8d/	.	8d/L 8b-/	.	8r	.	8r	.	8r	.	8r	.	8r	.
.	.	16D/Jk)	.	16b-\)	.	.	.	.	.	.	.	.	.	.	.	.	.	.	.	.	.	.
8r	.	8D/	-mul	8b-\	-mul	.	8r	.	8B-/J 8d/	.	8d/J 8b-/	.	8r	.	8r	.	8r	.	8r	.	8r	.
=109	=109	=109	=109	=109	=109	=109	=109	=109	=109	=109	=109	=109	=109	=109	=109	=109	=109	=109	=109	=109	=109	=109
!	!	!	!	!	!	!	!LO:PB:g=original	!	!	!	!	!	!	!	!	!	!	!	!	!	!	!
8F\	.	4E-/	a-	(>8.cc\L	a-	.	8f\	.	8r	.	8r	.	8f/	.	8cc\	.	8F\	.	8f/	.	8a/	.
8r	.	.	.	.	.	.	8r	.	8c/L 8e-/	.	8f/L 8cc/	.	8r	.	8r	.	8r	.	8r	.	8r	.
.	.	.	.	16a\Jk)	.	.	.	.	.	.	.	.	.	.	.	.	.	.	.	.	.	.
8r	.	8E-/	-bi-	8f/	-bi-	.	8r	.	8c/J 8e-/	.	8f/J 8cc/	.	8r	.	8r	.	8r	.	8r	.	8r	.
=110	=110	=110	=110	=110	=110	=110	=110	=110	=110	=110	=110	=110	=110	=110	=110	=110	=110	=110	=110	=110	=110	=110
!	!	!LO:PB:g=original!	!	!	!	!	!	!LO:PB:g=original	!	!	!	!	!	!	!	!	!LO:PB:g=original	!	!	!	!	!
8BB-/	.	8D/	-it.	8b-\	-it	.	4B-/	.	4B-/ 4d/	.	4d/ 4b-/	.	4d/	.	4b-\	.	4BB-/	.	4d/	.	4b-\	.
8r	.	8r	.	8r	.	.	.	.	.	.	.	.	.	.	.	.	.	.	.	.	.	.
!	!	!	!	!	!	!	!	!	!	!	!LO:TX:a:i:t=collar:	!	!	!	!	!	!	!	!	!	!	!
8r	.	8r	.	8r	.	.	8r	.	8r	.	8f/	p	8r	.	8r	.	8r	.	8r	.	8r	.
=111	=111	=111	=111	=111	=111	=111	=111	=111	=111	=111	=111	=111	=111	=111	=111	=111	=111	=111	=111	=111	=111	=111
!LO:TX:a:i:t=Collar:	!	!LO:N:vis=00	!	!LO:N:vis=00	!	!	!LO:TX:a:i:t=Collar	!	!LO:TX:a:i:t=Collar:	!	!	!	!	!	!	!LO:DY:a	!	!LO:DY:a	!	!LO:DY:a	!	!LO:DY:a
*	*	*	*	*	*	*	*	*	*tremolo	*	*	*	*	*	*	*	*	*	*	*	*	*
!	!LO:DY:b	!	!	!	!	!	!	!	!	!	!	!	!	!LO:DY:a	!	!	!	!	!	!	!	!
8F\L	p	1.r	.	1.r	.	.	8f\L	p	16c/LL	p	(<16f/LL	.	8f/L	p	8cc\L	p	8F\L	p	8cc\L	p	8ee-\L	p
.	.	.	.	.	.	.	.	.	16e-/	.	16en/	.	.	.	.	.	.	.	.	.	.	.
8F\	.	.	.	.	.	.	8f\	.	16c/	.	16f/	.	8f/	.	8cc\	.	8A\	.	8cc\	.	8ee-\	.
!	!	!LO:TX:a:t=13.	!	!LO:TX:a:t=12.	!	!	!	!	!	!	!	!	!	!	!	!	!	!	!	!	!	!
.	.	.	.	.	.	.	.	.	16e-/	.	16e/	.	.	.	.	.	.	.	.	.	.	.
8F\J	.	.	.	.	.	.	8f\J	.	16c/	.	16f/	.	8f/J	.	8cc\J	.	8c\J	.	8cc\J	.	8ee-\J	.
.	.	.	.	.	.	.	.	.	16e-/JJ	.	16e/JJ)	.	.	.	.	.	.	.	.	.	.	.
=112	=112	=112	=112	=112	=112	=112	=112	=112	=112	=112	=112	=112	=112	=112	=112	=112	=112	=112	=112	=112	=112	=112
!LO:PB:g=original	!	!	!	!	!	!	!	!	!	!	!LO:PB:g=original	!	!	!	!	!	!	!	!	!	!	!
!	!	!	!	!	!	!	!	!	!LO:TX:t=P:nie wyświetla się dynamika:problem	!	!	!LO:DY:a	!	!LO:DY:a	!	!	!	!LO:DY:a	!	!LO:DY:a	!	!LO:DY:a
*	*	*	*	*	*	*	*	*	*rep	*	*	*	*	*	*	*	*	*	*	*	*	*
!	!LO:DY:b	!	!	!	!	!	!	!	!	!	!	!	!	!	!	!LO:DY:a	!	!	!	!	!	!
8F\L	f	.	.	.	.	.	8f\L	.	16c/LL	f	8f/'	f	8f/L	f	8cc\L	f	8F\L	f	8cc\L	f	8ee-\L	f
.	.	.	.	.	.	.	.	.	16e-/	.	.	.	.	.	.	.	.	.	.	.	.	.
8F\	.	.	.	.	.	.	8f\	.	16c/	.	4a/'	.	8f/	.	8cc\	.	8A\	.	8cc\	.	8ee-\	.
.	.	.	.	.	.	.	.	.	16e-/	.	.	.	.	.	.	.	.	.	.	.	.	.
8A\J	.	.	.	.	.	.	8f\J	f	16c/	.	.	.	8f/J	.	8cc\J	.	8c\J	.	8cc\J	.	8ee-\J	.
.	.	.	.	.	.	.	.	.	16e-/JJ	.	.	.	.	.	.	.	.	.	.	.	.	.
*	*	*	*	*	*	*	*	*	*Xrep	*	*	*	*	*	*	*	*	*	*	*	*	*
=113	=113	=113	=113	=113	=113	=113	=113	=113	=113	=113	=113	=113	=113	=113	=113	=113	=113	=113	=113	=113	=113	=113
!	!LO:DY:b	!	!	!	!	!	!	!	!	!	!	!LO:DY:a	!	!LO:DY:a	!	!LO:DY:a	!	!LO:DY:a	!	!LO:DY:a	!LO:PB:g=original	!LO:DY:a
8F\L	p	.	.	.	.	.	8f\L	p	16B-/LL	p	(<16f/LL	p	8d/L	p	8b-\L	p	8F\L	p	8b-\L	p	8dd\L	p
.	.	.	.	.	.	.	.	.	16d/	.	16en/	.	.	.	.	.	.	.	.	.	.	.
8F\	.	.	.	.	.	.	8f\	.	16B-/	.	16f/	.	8d/	.	8b-\	.	8B-\	.	8b-\	.	8dd\	.
.	.	.	.	.	.	.	.	.	16d/	.	16e/	.	.	.	.	.	.	.	.	.	.	.
8F\J	.	.	.	.	.	.	8f\J	.	16B-/	.	16f/	.	8d/J	.	8b-\J	.	8d\J	.	8b-\J	.	8dd\J	.
.	.	.	.	.	.	.	.	.	16d/JJ	.	16e/JJ)	.	.	.	.	.	.	.	.	.	.	.
=114	=114	=114	=114	=114	=114	=114	=114	=114	=114	=114	=114	=114	=114	=114	=114	=114	=114	=114	=114	=114	=114	=114
!	!LO:DY:b	!	!	!	!	!	!	!	!	!	!	!LO:DY:a	!	!LO:DY:a	!	!LO:DY:a	!	!LO:DY:a	!	!LO:DY:a	!	!LO:DY:a
*	*	*	*	*	*	*	*	*	*rep	*	*	*	*	*	*	*	*	*	*	*	*	*
8F\L	f	.	.	.	.	.	8f\	f	16B-/LL	f	8f/'	f	8d/L	f	8b-\L	f	8F\L	f	8b-\L	f	8dd\L	f
.	.	.	.	.	.	.	.	.	16d/	.	.	.	.	.	.	.	.	.	.	.	.	.
8F\	.	.	.	.	.	.	4f\	.	16B-/	.	4b-\'	.	8d/	.	8b-\	.	8B-\	.	8b-\	.	8dd\	.
.	.	.	.	.	.	.	.	.	16d/	.	.	.	.	.	.	.	.	.	.	.	.	.
8B-\J	.	.	.	.	.	.	.	.	16B-/	.	.	.	8d/J	.	8b-\J	.	8d\J	.	8b-\J	.	8dd\J	.
.	.	.	.	.	.	.	.	.	16d/JJ	.	.	.	.	.	.	.	.	.	.	.	.	.
*	*	*	*	*	*	*	*	*	*Xrep	*	*	*	*	*	*	*	*	*	*	*	*	*
=115	=115	=115	=115	=115	=115	=115	=115	=115	=115	=115	=115	=115	=115	=115	=115	=115	=115	=115	=115	=115	=115	=115
!	!LO:DY:b	!LO:N:vis=00	!	!LO:N:vis=00	!	!	!	!	!	!	!	!LO:DY:a	!LO:PB:g=original	!LO:DY:a	!	!LO:DY:a	!	!LO:DY:a	!	!LO:DY:a	!	!LO:DY:a
*	*	*	*	*	*	*	*	*	*	*	*tremolo	*	*	*	*	*	*	*	*	*	*	*
8F\L	p	1.r	.	1.r	.	.	8f\L	p	16c/LL	p	(<16f/LL	p	8f/L	p	8cc\L	p	8F\L	p	8cc\L	p	8ee-\L	p
.	.	.	.	.	.	.	.	.	16e-/	.	16en/	.	.	.	.	.	.	.	.	.	.	.
8F\	.	.	.	.	.	.	8f\	.	16c/	.	16f/	.	8f/	.	8cc\	.	8A\	.	8cc\	.	8ee-\	.
.	.	.	.	.	.	.	.	.	16e-/	.	16e/	.	.	.	.	.	.	.	.	.	.	.
8F\J	.	.	.	.	.	.	8f\J	.	16c/	.	16f/	.	8f/J	.	8cc\J	.	8c\J	.	8cc\J	.	8ee-\J	.
.	.	.	.	.	.	.	.	.	16e-/JJ	.	16e/JJ)	.	.	.	.	.	.	.	.	.	.	.
=116	=116	=116	=116	=116	=116	=116	=116	=116	=116	=116	=116	=116	=116	=116	=116	=116	=116	=116	=116	=116	=116	=116
!	!LO:DY:b	!	!	!	!	!	!	!	!	!	!	!LO:DY:a	!	!LO:DY:a	!	!LO:DY:a	!	!LO:DY:a	!LO:PB:g=original	!LO:DY:a	!	!LO:DY:a
*	*	*	*	*	*	*	*	*	*rep	*	*	*	*	*	*	*	*	*	*	*	*	*
8F\	f	.	.	.	.	.	8f\	f	16c/LL	f	8f/'	f	8f/L	f	8cc\L	f	8F\L	f	8cc\L	f	8ee-\L	f
.	.	.	.	.	.	.	.	.	16e-/JJ	.	.	.	.	.	.	.	.	.	.	.	.	.
4e-\	.	.	.	.	.	.	4f\	.	16c/LL	.	4ee-\'	.	8f/	.	8cc\	.	8A\	.	8cc\	.	8ee-\	.
.	.	.	.	.	.	.	.	.	16e-/JJ	.	.	.	.	.	.	.	.	.	.	.	.	.
.	.	.	.	.	.	.	.	.	16c/LL	.	.	.	8f/J	.	8cc\J	.	8e-\J	.	8cc\J	.	8ee-\J	.
.	.	.	.	.	.	.	.	.	16e-/JJ	.	.	.	.	.	.	.	.	.	.	.	.	.
*	*	*	*	*	*	*	*	*	*Xrep	*	*	*	*	*	*	*	*	*	*	*	*	*
=117	=117	=117	=117	=117	=117	=117	=117	=117	=117	=117	=117	=117	=117	=117	=117	=117	=117	=117	=117	=117	=117	=117
!	!LO:DY:b	!	!	!	!	!	!	!	!	!	!	!LO:DY:a	!	!LO:DY:a	!	!LO:DY:a	!	!LO:DY:a	!	!LO:DY:a	!	!LO:DY:a
8BB-/L	p	.	.	.	.	.	4B-/	p	16B-/LL	p	8.dd\L	p	4d/	p	4b-\	p	8F\L	p	8b-\L	p	8dd\L	p
.	.	.	.	.	.	.	.	.	16d/	.	.	.	.	.	.	.	.	.	.	.	.	.
!LO:TX:t=P:mixed beam:problem	!	!	!	!	!	!	!	!	!	!	!	!	!	!	!	!	!	!	!	!	!	!
8B-\	.	.	.	.	.	.	.	.	16B-/	.	.	.	.	.	.	.	8B-\	.	8b-\	.	8dd\	.
.	.	.	.	.	.	.	.	.	16d/	.	16b-\Jk	.	.	.	.	.	.	.	.	.	.	.
8BB-/J	.	.	.	.	.	.	8r	.	16B-/	.	8b-\	.	8d/	.	8b-\	.	8d\J	.	8b-\J	.	8dd\J	.
.	.	.	.	.	.	.	.	.	16d/JJ	.	.	.	.	.	.	.	.	.	.	.	.	.
=118	=118	=118	=118	=118	=118	=118	=118	=118	=118	=118	=118	=118	=118	=118	=118	=118	=118	=118	=118	=118	=118	=118
8F\L	???	.	.	.	.	.	8f\	???	16c/LL	.	8.cc\	.	4f/	.	4cc\	.	8F\L	.	8cc\L	.	8ee-\L	.
.	.	.	.	.	.	.	.	.	16e-/	.	.	.	.	.	.	.	.	.	.	.	.	.
8C/	.	.	.	.	.	.	8r	.	16c/	.	.	.	.	.	.	.	8c\	.	8cc\	.	8ee-\	.
.	.	.	.	.	.	.	.	.	16e-/	.	16a/	.	.	.	.	.	.	.	.	.	.	.
8E-\J	.	.	.	.	.	.	8r	.	16c/	.	8f/	.	8f/	.	8cc\	.	8e-\J	.	8cc\J	.	8ee-\J	.
.	.	.	.	.	.	.	.	.	16e-/JJ	.	.	.	.	.	.	.	.	.	.	.	.	.
=119	=119	=119	=119	=119	=119	=119	=119	=119	=119	=119	=119	=119	=119	=119	=119	=119	=119	=119	=119	=119	=119	=119
!	!	!LO:N:vis=00	!	!LO:N:vis=00	!	!	!	!	!	!	!	!	!	!	!	!	!	!	!	!	!	!
8B-\L	.	1.r	.	1.r	.	.	8B-/	.	16B-/LL	.	8b-\'L	.	8d/L	.	8b-\L	.	8B-\L	.	8b-\L	.	8dd\L	.
.	.	.	.	.	.	.	.	.	16d/	.	.	.	.	.	.	.	.	.	.	.	.	.
8F\	.	.	.	.	.	.	8r	.	16B-/	.	8dd\'	.	8d/	.	8b-\	.	8F\	.	8b-\	.	8dd\	.
.	.	.	.	.	.	.	.	.	16d/	.	.	.	.	.	.	.	.	.	.	.	.	.
8D\J	.	.	.	.	.	.	8r	.	16B-/	.	8ff\'J	.	8d/J	.	8b-\J	.	8D\J	.	8b-\J	.	8dd\J	.
.	.	.	.	.	.	.	.	.	16d/JJ	.	.	.	.	.	.	.	.	.	.	.	.	.
=120	=120	=120	=120	=120	=120	=120	=120	=120	=120	=120	=120	=120	=120	=120	=120	=120	=120	=120	=120	=120	=120	=120
!	!	!	!	!	!	!	!LO:PB:g=original	!	!	!	!	!	!	!	!	!	!LO:PB:g=original	!	!	!	!	!
8BB-/	.	.	.	.	.	.	4.r	.	8c/ 8e-/	.	(>16ff\LL	.	8d/	.	8b-\	.	8BB-/	.	4cc\	.	4ee-\	.
.	.	.	.	.	.	.	.	.	.	.	16eenX\	.	.	.	.	.	.	.	.	.	.	.
8r	.	.	.	.	.	.	.	.	8r	.	16gg\	.	8r	.	8r	.	8r	.	.	.	.	.
!	!	!	!	!	!	!	!LO:TX:a:t=1	!	!	!	!	!	!	!	!	!	!	!	!	!	!	!
.	.	.	.	.	.	.	.	.	.	.	16ff\	.	.	.	.	.	.	.	.	.	.	.
8r	.	.	.	.	.	.	.	.	8r	.	16ee-X\	.	8r	.	8r	.	8r	.	8r	.	8r	.
.	.	.	.	.	.	.	.	.	.	.	16dd\JJ)	.	.	.	.	.	.	.	.	.	.	.
=121	=121	=121	=121	=121	=121	=121	=121	=121	=121	=121	=121	=121	=121	=121	=121	=121	=121	=121	=121	=121	=121	=121
!	!	!	!	!	!	!	!	!	!	!	!LO:PB:g=original	!	!	!	!	!	!	!	!	!	!	!
!LO:TX:a:i:t=forte	!LO:DY:a	!	!	!	!	!	!	!LO:DY:a	!	!LO:DY:a	!	!LO:DY:a	!	!LO:DY:a	!	!LO:DY:a	!LO:TX:a:i:t=forte	!LO:DY:a	!LO:TX:a:i:t=forte	!	!	!LO:DY:a
8F\L	f	.	.	.	.	.	8f\L	f	8.ccL\	f	8.ee-\L	f	4f/	f	4cc\	f	8F\L	f	8.ccL\	f	8.ee-\L	f
8F\	.	.	.	.	.	.	8f\	.	.	.	.	.	.	.	.	.	8c\	.	.	.	.	.
.	.	.	.	.	.	.	.	.	16a/J	.	16cc\Jk	.	.	.	.	.	.	.	16b-\Jk	.	16dd\KJ	.
8F\J	.	.	.	.	.	.	8f\J	.	8a\	.	8cc\	.	8f/	.	8cc\	.	8e-\J	.	8a/	.	8cc\	.
=122	=122	=122	=122	=122	=122	=122	=122	=122	=122	=122	=122	=122	=122	=122	=122	=122	=122	=122	=122	=122	=122	=122
!LO:PB:g=original	!	!	!	!	!	!	!	!	!	!	!	!	!	!	!	!	!	!	!	!	!	!
4B-\	.	.	.	.	.	.	8b-\L	.	8.b-L\	.	8.dd\L	.	4d/	.	4b-\	.	8F\L	.	8.b-L\	.	8.dd\L	.
.	.	.	.	.	.	.	8b-\	.	.	.	.	.	.	.	.	.	8B-\	.	.	.	.	.
!	!	!	!	!	!	!	!	!	!LO:TX:t=P:mixed beam:problem	!	!	!	!	!	!	!	!	!	!	!	!	!
.	.	.	.	.	.	.	.	.	16dJk/	.	16b-\Jk	.	.	.	.	.	.	.	16f/Jk	.	16cc\Jk	.
8B-\	.	.	.	.	.	.	8b-\J	.	8d/	.	8b-\	.	8d/	.	8b-\	.	8d\J	.	8d/	.	8b-\	.
=123	=123	=123	=123	=123	=123	=123	=123	=123	=123	=123	=123	=123	=123	=123	=123	=123	=123	=123	=123	=123	=123	=123
!	!	!	!	!	!	!	!	!	!	!	!	!	!	!	!	!	!	!	!	!	!LO:PB:g=original	!
4F\	.	4.r	.	4.r	.	.	8f\L	.	4e-/	.	8.cc\	.	4f/	.	4cc\	.	8F\L	.	4e-/	.	8cc\L	.
.	.	.	.	.	.	.	8f\	.	.	.	.	.	.	.	.	.	8c\	.	.	.	8b-\	.
.	.	.	.	.	.	.	.	.	.	.	16a\	.	.	.	.	.	.	.	.	.	.	.
8F\	.	.	.	.	.	.	8f\J	.	8e-/	.	8f\	.	8f/	.	8cc\	.	8e-\J	.	8e-/	.	8a/J	.
=124	=124	=124	=124	=124	=124	=124	=124	=124	=124	=124	=124	=124	=124	=124	=124	=124	=124	=124	=124	=124	=124	=124
!	!	!	!	!LO:TX:a:t=124	!	!	!	!	!	!	!	!	!	!	!	!	!	!	!	!	!	!
4BB-/	.	4r	.	4r	.	.	4B-/	.	4B-/ 4d/	.	4b-\	.	4d/	.	4b-\	.	4B-\	.	4d/	.	4b-\	.
!LO:TX:a:t=124	!	!LO:TX:a:t=124	!	!	!	!	!LO:TX:a:t=124.	!	!LO:TX:a:t=124.	!	!LO:TX:a:t=124.	!	!LO:TX:a:t=124.	!	!LO:TX:a:t=124.	!	!LO:TX:a:t=124.	!	!LO:TX:a:t=124.	!	!LO:TX:a:t=124.	!
8r	.	8r	.	8r	.	.	8r	.	8r	.	8r	.	8r	.	8r	.	8r	.	8r	.	8r	.
==	==	==	==	==	==	==	==	==	==	==	==	==	==	==	==	==	==	==	==	==	==	==
*-	*-	*-	*-	*-	*-	*-	*-	*-	*-	*-	*-	*-	*-	*-	*-	*-	*-	*-	*-	*-	*-	*-
!!!system-decoration: s1,s2,s3,s4,s5,s6,s7,s8,s9,s10,s11
!!!RDF**kern: > = above
!!!RDF**kern: < = below
!!!ENC: Leszek Kubiak
!!!END: data 2020-03-21
